!!!!SEGMENT: pl-sa--179-a-v-9--003_anonim--msza-patrem.krn
!!!cenid: 17xx:1641
!!!COM: Anonim
!!!COM-rismID: pe30004985
!!!CDT:
!!!CNT:
!!!OPR: Msza
!!!OTL: Patrem
!!!OMV: 003
!!!PDT:
!!!AGN: Sacred; Mass
!!!SMS-siglum: PL-SA
!!!SMS-shelfmark: 179/A V 9
!!!SMS-shelfwork: 001-003 M
!!!SMS-variant:
!!!SMS-altvar:
!!!NIFC-rismSourceID: 1001035886
!!!NIFC-rismChildID: 1001035886
!!!NIFC-islandoraID: none
!!!URL-pdf-islandora:
!!!URL-scan: https://bc.bdsandomierz.pl/dlibra/publication/1514/edition/1482/content @EN{Scan in the Sandomierz Diocese Digital Library} @PL{Skany w portalu Cyfrowa Biblioteka Diecezjalna w Sandomierzu}
!!!IIIF:
!!!ONB-nifc: UWAGA: części Mszy: 1. Kyrie, 2. Et in terra, 3. Patrem, 4. Sanctus, 5. Agnus Dei
!!!AIN: 1 alto 1 bass 1 soprn 1 tenor 2 violn
!!!key: D
**kern	**kern	**dynam	**kern	**text	**text	**kern	**kern	**text	**kern	**text	**text
*group2	*group2	*	*group1	*	*	*group1	*group1	*	*group1	*	*
*part6	*part5	*part5	*part4	*part4	*part4	*part3	*part2	*part2	*part1	*part1	*part1
*staff6	*staff5	*	*staff4	*staff4	*staff4	*staff3	*staff2	*staff2	*staff1	*staff1	*staff1
*I"Violino 2do.	*I"Violino 1mo.	*	*I"Baſso	*	*	*I"[Tenor]	*I"Alto.	*	*I"Canto.	*	*
*I'vl 2	*I'vl 1	*	*I'B	*	*	*I'T	*I'A	*	*I'S	*	*
*Ivioln	*Ivioln	*	*Ibass	*	*	*Itenor	*Ialto	*	*Isoprn	*	*
*ICstr	*ICstr	*	*ICvox	*	*	*ICvox	*ICvox	*	*ICvox	*	*
*clefG2	*clefG2	*	*clefF4	*	*	*clefC4	*clefC3	*	*clefC1	*	*
*k[f#c#]	*k[f#c#]	*	*k[f#c#]	*	*	*k[f#c#]	*k[f#c#]	*	*k[f#c#]	*	*
*D:	*D:	*	*D:	*	*	*D:	*D:	*	*D:	*	*
*M3/8	*M3/8	*	*M3/8	*	*	*M3/8	*M3/8	*	*M3/8	*	*
=1	=1	=1	=1	=1	=1	=1	=1	=1	=1	=1	=1
!LO:TX:b:t=Credo.	!LO:TX:b:t=Credo	!	!	!	!	!	!	!	!LO:TX:t=P:problem=znaki f# cc#	!	!
!LO:TX:a:t=Moderato.	!LO:TX:a:t=Moderato.	!	!LO:TX:a:rj:t=Moderato	!	!	!LO:TX:t=P::problem=brak partii, wg RISM "Notes on material&colon; Other parts presumably missing."	!LO:TX:a:rj:t=Moderato	!	!LO:TX:a:rj:t=Moderato.	!	!
4f#/	4dd\	.	8D\	Pat-	.	4.ryy	8f#\	Pat-	8dd\	Pat-	.
.	.	.	16D\	-re(m)	.	.	16f#\	-re(m)	16dd\	-re(m)	.
.	.	.	16D\	om-	.	.	16f#\	om-	16dd\	om-	.
8r	8r	.	16D\	-ni-	.	.	16f#\	-ni-	16dd\	-ni-	.
.	.	.	16D\	-po-	.	.	16f#\	-po-	16dd\	-po-	.
=2	=2	=2	=2	=2	=2	=2	=2	=2	=2	=2	=2
4g/	4b 4d 4G/	.	8G\	-ten-	.	4.ryy	8g\	-te(n)-	8b\	-ten-	.
.	.	.	8G\	-te(m)	.	.	8g\	-te(m)	8b\	-te(m)	.
8r	8r	.	8G\	fac-	.	.	8b\	fac-	8b\	fac-	.
=3	=3	=3	=3	=3	=3	=3	=3	=3	=3	=3	=3
8ee\L	8a\L	.	16A\	-to-	.	4.ryy	16a\	-to-	16cc#\	-to-	.
.	.	.	16A\	-re(m)	.	.	16a\	-re(m)	16dd\	-re(m)	.
8cc#\	8gg\	.	8A\	cae-	.	.	8a\	Cae-	(16ee\LL	cae-	.
.	.	.	.	.	.	.	.	.	16ff#\JJ)	.	.
8ee\J	8ee\J	.	16A\	-li	.	.	16a\	-li	16gg\	-li	.
.	.	.	16A\	et	.	.	16a\	et	16ee\	et	.
!	!	!	!LO:LB:g=original	!	!	!	!LO:LB:g=original	!	!	!	!
=4	=4	=4	=4	=4	=4	=4	=4	=4	=4	=4	=4
8dd\L	8ff#\L	.	8D\	ter-	.	4.ryy	8a\	ter-	8ff#\	ter-	.
8cc#\J	8ee\J	.	8A\	-rae	.	.	8a\	-rae	8ee\	-rae	.
8r	8r	.	8r	.	.	.	8r	.	8r	.	.
!	!	!	!	!	!	!	!	!	!LO:PB:g=original	!	!
=5	=5	=5	=5	=5	=5	=5	=5	=5	=5	=5	=5
16dd\LL	16ff#\LL	.	16D/	vi-	.	4.ryy	16a\	vi-	16ff#\	vi-	.
16dd\	16ff#\	.	16D/	-si-	.	.	16a\	-si-	16ff#\	-si-	.
16cc#\	16ee\	.	8D/	-bi-	.	.	8a\	-bi-	8ee\	-bi-	.
16cc#\	16ee\	.	.	.	.	.	.	.	.	.	.
16dd\	16ff#\	.	16D/	-li-	.	.	16a\	-li-	16ff#\	-li-	.
16dd\JJ	16ff#\JJ	.	16D/	-u(m)	.	.	16a\	-um	16ff#\	-um	.
!	!LO:LB:g=original	!	!	!	!	!	!	!	!	!	!
=6	=6	=6	=6	=6	=6	=6	=6	=6	=6	=6	=6
16cc#\LL	16ee\LL	.	8.A\	om-	.	4.ryy	8.a\	om-	8.ee\	om-	.
16cc#\	16ee\	.	.	.	.	.	.	.	.	.	.
16b\	16dd\	.	.	.	.	.	.	.	.	.	.
16b\	16dd\	.	16AA/	-ni-	.	.	16a\	-ni-	16dd\	-ni-	.
16cc#\	16ee\	.	8AA/	-u(m)	.	.	8a\	-u(m)	8ee\	-u(m)	.
16cc#\JJ	16ee\JJ	.	.	.	.	.	.	.	.	.	.
=7	=7	=7	=7	=7	=7	=7	=7	=7	=7	=7	=7
16b/LL	16dd\LL	.	8BB/	et	.	4.ryy	8f#\	et	8dd\	et	.
16b/	16dd\	.	.	.	.	.	.	.	.	.	.
16a/	16cc#\	.	16C#/LL	in-	.	.	8a\	in-	8cc#\	in-	.
16a/	16cc#\	.	16D/JJ	.	.	.	.	.	.	.	.
16g#X/	16b\	.	16E\	-vi-	.	.	16e\	-vi-	16b\	-vi-	.
16g#/JJ	16b\JJ	.	16E\	-si-	.	.	16e\	-si-	16b\	-si-	.
=8	=8	=8	=8	=8	=8	=8	=8	=8	=8	=8	=8
4a/	4cc#\	.	16AA/LL	-bi-	.	4.ryy	8.e\	-bi-	8.cc#\	-bi-	.
.	.	.	16BB/JJ	.	.	.	.	.	.	.	.
.	.	.	16C#/LL	-li-	.	.	.	.	.	.	.
.	.	.	16D/JJ	.	.	.	16e\	-li-	16cc#\	-li-	.
8g#X/	8b\	.	8E\	-um	.	.	8e\	-um	8b\	-u(m)	.
=9	=9	=9	=9	=9	=9	=9	=9	=9	=9	=9	=9
16cc#\LL	16ee\LL	.	8C#/L	et	.	4.ryy	4cc#\	et	4ee\	et	.
16cc#\	16ee\	.	.	.	.	.	.	.	.	.	.
16cc#\	16ee\	.	8D/J	.	.	.	.	.	.	.	.
16cc#\	16ee\	.	.	.	.	.	.	.	.	.	.
16cc#\	16ee\	.	8E\	in	.	.	8cc#\	in	8ee\	in	.
16cc#\JJ	16ee\JJ	.	.	.	.	.	.	.	.	.	.
!LO:LB:g=original	!	!	!	!	!	!	!	!	!	!	!
=10	=10	=10	=10	=10	=10	=10	=10	=10	=10	=10	=10
16cc#\LL	16ee\LL	.	4F#\	u-	.	4.ryy	8a\L	u-	(8ee\L	u-	.
16cc#\	16ee\	.	.	.	.	.	.	.	.	.	.
16b\	16dd\	.	.	.	.	.	8b\J	.	8dd\J)	.	.
16b\	16dd\	.	.	.	.	.	.	.	.	.	.
16a\	16cc#\	.	8F#\	-num	.	.	8cc#\	-nu(m)	8cc#\	-nu(m)	.
16a\JJ	16cc#\JJ	.	.	.	.	.	.	.	.	.	.
!	!	!	!LO:LB:g=original	!	!	!	!LO:LB:g=original	!	!	!	!
=11	=11	=11	=11	=11	=11	=11	=11	=11	=11	=11	=11
*	*	*	*	*ij	*	*	*	*ij	*	*ij	*
16b\LL	16dd\LL	.	8BB/L	u-	.	4.ryy	4b\	u-	4dd\	u-	.
16b\	16dd\	.	.	.	.	.	.	.	.	.	.
16b\	16dd\	.	8C#/J	.	.	.	.	.	.	.	.
16b\	16dd\	.	.	.	.	.	.	.	.	.	.
16b\	16dd\	.	8D\	-nu(m)	.	.	8b\	-nu(m)	8dd\	-nu(m)	.
*	*	*	*	*Xij	*	*	*	*Xij	*	*Xij	*
16b\JJ	16dd\JJ	.	.	.	.	.	.	.	.	.	.
!	!	!	!	!	!	!	!	!	!LO:LB:g=original	!	!
=12	=12	=12	=12	=12	=12	=12	=12	=12	=12	=12	=12
16b\LL	16dd\LL	.	8.E\	Do-	.	4.ryy	8.g#X\	Do-	8.dd\	Do-	.
16b\	16dd\	.	.	.	.	.	.	.	.	.	.
16a\	16cc#\	.	.	.	.	.	.	.	.	.	.
16a\	16cc#\	.	16E\	-mi-	.	.	16a\	-mi-	16cc#\	-mi-	.
16g#X\	16b\	.	8E\	-nu(m)	.	.	8b\	-nu(m)	8b\	-nu(m)	.
16g#\JJ	16b\JJ	.	.	.	.	.	.	.	.	.	.
=13	=13	=13	=13	=13	=13	=13	=13	=13	=13	=13	=13
!	!LO:TX:t=P:problem=mixed beam	!	!	!	!	!	!	!	!	!	!
16a\LL	16a/LL	.	4A\	Je-	.	4.ryy	4a\	Je-	4cc#\	Je-	.
16cc#\	16aa\	.	.	.	.	.	.	.	.	.	.
16cc#\	16aa\	.	.	.	.	.	.	.	.	.	.
16cc#\	16aa\	.	.	.	.	.	.	.	.	.	.
16cc#\	16aa\	.	8G#X\	-su(m)	.	.	8a\	-su(m)	8cc#\	-su(m)	.
16cc#\JJ	16aa\JJ	.	.	.	.	.	.	.	.	.	.
=14	=14	=14	=14	=14	=14	=14	=14	=14	=14	=14	=14
!	!LO:TX:t=P:problem=mixed beam	!	!	!	!	!	!	!	!	!	!
16cc#\LL	16a/LL	.	4F#\	Chris-	.	4.ryy	4a\	Chris-	4cc#\	Chris-	.
16cc#\	16aa\	.	.	.	.	.	.	.	.	.	.
16cc#\	16aa\	.	.	.	.	.	.	.	.	.	.
16cc#\	16aa\	.	.	.	.	.	.	.	.	.	.
16cc#\	16aa\	.	8E\	-tu(m)	.	.	8a\	-tu(m)	8cc#\	-tu(m)	.
16cc#\JJ	16aa\JJ	.	.	.	.	.	.	.	.	.	.
=15	=15	=15	=15	=15	=15	=15	=15	=15	=15	=15	=15
!LO:TX:t=P:problem=takt zapisany powtórką	!LO:TX:t=P:problem=mixed beam	!	!	!	!	!	!	!	!	!	!
16cc#\LLyy	16aa\LL	.	8.D/	fi-	.	4.ryy	8a\	fi-	8cc#\	fi-	.
16cc#\yy	16a/	.	.	.	.	.	.	.	.	.	.
16cc#\yy	16a/	.	.	.	.	.	8a\	-li-	8cc#\	-li-	.
16cc#\yy	16a/	.	16D/	-li-	.	.	.	.	.	.	.
16cc#\yy	16a/	.	8C#/	-u(m)	.	.	8a\	-um	8cc#\	-um	.
16cc#\JJyy	16a/JJ	.	.	.	.	.	.	.	.	.	.
=16	=16	=16	=16	=16	=16	=16	=16	=16	=16	=16	=16
!	!LO:TX:t=P:problem=mixed beam	!	!	!	!	!	!	!	!	!	!
8dd\L	8g#X/L	.	4BB/	De-	.	4.ryy	4b\	De-	4dd\	De-	.
8b\J	8dd\	.	.	.	.	.	.	.	.	.	.
16cc#\LL	8cc#\J	.	8AA/	-i	.	.	8cc#\	-i	8cc#\	-i	.
16a\JJ	.	.	.	.	.	.	.	.	.	.	.
!	!LO:LB:g=original	!	!	!	!	!	!	!	!	!	!
=17	=17	=17	=17	=17	=17	=17	=17	=17	=17	=17	=17
16g#X/LL	16b/LL	.	4E\	u-	.	4.ryy	4e\	u-	4b\	u-	.
16g#/	16e/	.	.	.	.	.	.	.	.	.	.
16g#/	16g#X/	.	.	.	.	.	.	.	.	.	.
16g#/	16b/	.	.	.	.	.	.	.	.	.	.
16a/	16cc#/	.	8AA/	-ni-	.	.	8e\	-ni-	8cc#\	-ni-	.
16a/JJ	16a/JJ	.	.	.	.	.	.	.	.	.	.
=18	=18	=18	=18	=18	=18	=18	=18	=18	=18	=18	=18
16g#X/LL	16b/LL	.	4E\	-ge-	.	4.ryy	4e\	-ge-	4b\	-ge-	.
16g#/	16g#X/	.	.	.	.	.	.	.	.	.	.
16g#/	16e/	.	.	.	.	.	.	.	.	.	.
16g#/	16g#/	.	.	.	.	.	.	.	.	.	.
16g#/	16b/	.	8E\	-ni-	.	.	8e\	-ni-	8b\	-ni-	.
16b/JJ	16g#/JJ	.	.	.	.	.	.	.	.	.	.
=19	=19	=19	=19	=19	=19	=19	=19	=19	=19	=19	=19
!LO:TX:t=P:problem=mixed beam	!LO:TX:t=P:problem=mixed beam	!	!	!	!	!	!	!	!	!	!
16a\LL	16a\LL	.	4AA/	-tu(m)	.	4.ryy	4e\	-tum	4a\	-tu(m)	.
16cc#\	16cc#\	.	.	.	.	.	.	.	.	.	.
16ee\	16ee\	.	.	.	.	.	.	.	.	.	.
16aa\J	16aa\J	.	.	.	.	.	.	.	.	.	.
8a/J	8a/J	.	8r	.	.	.	8r	.	16dd\	et	.
.	.	.	.	.	.	.	.	.	16dd\	ex	.
!	!	!	!	!	!	!	!LO:LB:g=original	!	!	!	!
=20	=20	=20	=20	=20	=20	=20	=20	=20	=20	=20	=20
!	!LO:TX:t=P:problem=mixed beam	!	!	!	!	!	!	!	!	!	!
16f#/LL	16d/LL	.	16D\	et	.	4.ryy	16f#\	et	4dd\	Pat-	.
16f#/	16dd\	.	16D\	ex	.	.	16f#\	ex	.	.	.
!	!	!	!LO:LB:g=original	!	!	!	!	!	!	!	!
16gn/	16dd\	.	8E\	Pat-	.	.	8e\	Pat-	.	.	.
16g/	16dd\	.	.	.	.	.	.	.	.	.	.
16a/	16dd\	.	8F#\	-re	.	.	8d\	-re	8dd\	-re	.
16a/JJ	16dd\JJ	.	.	.	.	.	.	.	.	.	.
=21	=21	=21	=21	=21	=21	=21	=21	=21	=21	=21	=21
!	!LO:TX:t=P:problem=mixed beam	!	!	!	!	!	!	!	!	!	!
16b\LL	16d/LL	.	8G\	na-	.	4.ryy	8g\	na-	8dd\	na-	.
16b\	16dd\	.	.	.	.	.	.	.	.	.	.
16a\	16dd\	.	8F#\	-tu(m)	.	.	8a\	-tu(m)	8dd\	-tu(m)	.
16a\	16dd\	.	.	.	.	.	.	.	.	.	.
!	!	!	!	!	!	!	!	!	!LO:LB:g=original	!	!
16b\	16dd\	.	16G\	an-	.	.	16g\	an-	16dd\	an-	.
16b\JJ	16dd\JJ	.	16G\	-te	.	.	16g\	-te	16dd\	-te	.
!LO:LB:g=original	!	!	!	!	!	!	!	!	!	!	!
=22	=22	=22	=22	=22	=22	=22	=22	=22	=22	=22	=22
!	!LO:TX:t=P:problem=mixed beam	!	!	!	!	!	!	!	!	!	!
16f#/LL	16dd\LL	.	8D\	om-	.	4.ryy	8f#\	om-	8dd\	om-	.
16f#/	16d/	.	.	.	.	.	.	.	.	.	.
16g/	16d/	.	8E\	-ni-	.	.	8e\	-ni-	8dd\	-ni-	.
16g/	16d/	.	.	.	.	.	.	.	.	.	.
16a/	16d/	.	8F#\	-a	.	.	8d\	-a	8dd\	-a	.
16a/JJ	16d/JJ	.	.	.	.	.	.	.	.	.	.
=23	=23	=23	=23	=23	=23	=23	=23	=23	=23	=23	=23
!	!LO:TX:t=P:problem=mixed beam	!	!	!	!	!	!	!	!	!	!
16b\LL	16dd\LL	.	8G\	ſae-	.	4.ryy	8g\	ſae-	8dd\	ſae-	.
16b\	16d/	.	.	.	.	.	.	.	.	.	.
16a\	16d/	.	8F#\	-cu-	.	.	8a\	-cu-	8dd\	-cu-	.
16a\	16d/	.	.	.	.	.	.	.	.	.	.
16b\	16d/	.	8G\	-la	.	.	8g\	-la	8dd\	-la	.
16b\JJ	16d/JJ	.	.	.	.	.	.	.	.	.	.
=24	=24	=24	=24	=24	=24	=24	=24	=24	=24	=24	=24
!	!LO:TX:t=P:problem=mixed beam	!	!	!	!	!	!	!	!	!	!
16g#X/LL	16e/LL	.	8E\	De-	.	4.ryy	8g#X\	De-	8g#X\	De-	.
16g#/	16ee\	.	.	.	.	.	.	.	.	.	.
16a/	16ee\	.	8F#\	-u(m)	.	.	8f#\	-um	8a\	-u(m)	.
16a/	16ee\	.	.	.	.	.	.	.	.	.	.
16b/	16ee\	.	8G#X\	de	.	.	8e\	de	8b\	de	.
16b/JJ	16ee\JJ	.	.	.	.	.	.	.	.	.	.
=25	=25	=25	=25	=25	=25	=25	=25	=25	=25	=25	=25
!	!LO:TX:t=P:problem=mixed beam	!	!	!	!	!	!	!	!	!	!
!	!LO:TX:t=P:problem=takt zapisany powtórką	!	!	!	!	!	!	!	!	!	!
16cc#\LL	16e/LLyy	.	(8A\L	De-	.	4.ryy	8a\L	De-	(8cc#\L	De-	.
16cc#\	16ee\yy	.	.	.	.	.	.	.	.	.	.
!	!	!	!LO:SIC:v:s=8G#\J)	!	!	!	!	!	!	!	!
16b\	16ee\yy	.	8G\J)	.	.	.	8b\J	.	8b\J)	.	.
16b\	16ee\yy	.	.	.	.	.	.	.	.	.	.
16cc#\	16ee\yy	.	8A\	-o	.	.	8a\	-o	8cc#\	-o	.
16cc#\JJ	16ee\JJyy	.	.	.	.	.	.	.	.	.	.
!	!	!	!	!	!	!	!LO:PB:g=original	!	!	!	!
=26	=26	=26	=26	=26	=26	=26	=26	=26	=26	=26	=26
!	!LO:TX:t=P:problem=mixed beam	!	!	!	!	!	!	!	!	!	!
16g#X/LL	16ee\LL	.	8E\	lu-	.	4.ryy	8g#X\	lu-	8g#X\	lu-	.
16g#/	16e/	.	.	.	.	.	.	.	.	.	.
16a/	16e/	.	8F#\	-men	.	.	8f#\	-men	8a\	-men	.
16a/	16e/	.	.	.	.	.	.	.	.	.	.
16b/	16e/	.	8G#X\	de	.	.	8e\	de	8b\	de	.
16b/JJ	16e/JJ	.	.	.	.	.	.	.	.	.	.
!	!	!	!LO:PB:g=original	!	!	!	!	!	!	!	!
=27	=27	=27	=27	=27	=27	=27	=27	=27	=27	=27	=27
!	!LO:TX:t=P:problem=mixed beam	!	!	!	!	!	!	!	!	!	!
16cc#\LL	16ee\LL	.	8A\	lu-	.	4.ryy	8a\L	lu-	8cc#\	lu-	.
16cc#\	16e/	.	.	.	.	.	.	.	.	.	.
!	!	!	!LO:SIC:v:s=8G#\	!	!	!	!	!	!	!	!
16b\	16e/	.	8G\	-mi-	.	.	8b\J	mi-	8b\	-mi-	.
16b\	16e/	.	.	.	.	.	.	.	.	.	.
16cc#\	16e/	.	8A\	-ne	.	.	8a\	-ne	8cc#\	-ne	.
16cc#\JJ	16e/JJ	.	.	.	.	.	.	.	.	.	.
=28	=28	=28	=28	=28	=28	=28	=28	=28	=28	=28	=28
!	!LO:TX:t=P:problem=mixed beam	!	!	!	!	!	!	!	!	!	!
16a#X/LL	16f#/LL	.	(8F#\	De-	.	4.ryy	(8a#X\	De-	4ff#\	De-	.
16a#/	16ff#\	.	.	.	.	.	.	.	.	.	.
16b/	16ff#\	.	8G#X\)	[[-u(m)]]	.	.	8g#X\)	.	.	.	.
16b/	16ff#\	.	.	.	.	.	.	.	.	.	.
16cc#/	16ff#\	.	8A#X\	-um	.	.	8f#\	-um	8ff#\	-um	.
16cc#/JJ	16ff#\JJ	.	.	.	.	.	.	.	.	.	.
!	!	!	!	!	!	!	!	!	!LO:LB:g=original	!	!
=29	=29	=29	=29	=29	=29	=29	=29	=29	=29	=29	=29
!	!LO:TX:t=P:problem=mixed beam	!	!	!	!	!	!	!	!	!	!
16dd\LL	16f#/LL	.	8B\	[[ru(m)]]	ve-	4.ryy	8b\	ve-	8ff#\	ve-	.
16dd\	16ff#\	.	.	.	.	.	.	.	.	.	.
16cc#\	16ff#\	.	8A#X\	[[de]]	-ru(m)	.	8cc#\	-ru(m)	8ff#\	-ru(m)	.
16cc#\	16ff#\	.	.	.	.	.	.	.	.	.	.
16dd\	16ff#\	.	8B\	de	.	.	8b\	de	8ff#\	de	.
16dd\JJ	16ff#\JJ	.	.	.	.	.	.	.	.	.	.
!	!LO:LB:g=original	!	!	!	!	!	!	!	!	!	!
=30	=30	=30	=30	=30	=30	=30	=30	=30	=30	=30	=30
!	!LO:TX:t=P:problem=mixed beam	!	!	!	!	!	!	!	!	!	!
16a#X/LL	16ff#\LL	.	8F#\L	De-	.	4.ryy	(8a#X\L	De-	4ff#\	De-	.
16a#/	16f#/	.	.	.	.	.	.	.	.	.	.
16b/	16f#/	.	8G#X\J	.	.	.	8g#X\J)	.	.	.	.
16b/	16f#/	.	.	.	.	.	.	.	.	.	.
16cc#/	16f#/	.	8A#X\	-o	.	.	8f#\	-o	8ff#\	-o	.
16cc#/JJ	16f#/JJ	.	.	.	.	.	.	.	.	.	.
=31	=31	=31	=31	=31	=31	=31	=31	=31	=31	=31	=31
!	!LO:TX:t=P:problem=mixed beam	!	!	!	!	!	!	!	!	!	!
16dd\LL	16ff#\LL	.	8B\L	ve-	.	4.ryy	8b\L	ve-	4ff#\	ve-	.
16dd\	16f#/	.	.	.	.	.	.	.	.	.	.
16cc#\	16f#/	.	8A#X\J	.	.	.	8cc#\J	.	.	.	.
16cc#\	16f#/	.	.	.	.	.	.	.	.	.	.
16dd\	16f#/	.	8B\	-ro	.	.	8b\	-ro	8ff#\	-ro	.
16dd\JJ	16f#/JJ	.	.	.	.	.	.	.	.	.	.
!	!	!	!	!	!	!	!LO:LB:g=original	!	!	!	!
=32	=32	=32	=32	=32	=32	=32	=32	=32	=32	=32	=32
16cc#\LL	8ee\L	.	4An\	ge-	.	4.ryy	8r	.	(8ee\L	ge-	.
16cc#\JJ	.	.	.	.	.	.	.	.	.	.	.
8b\L	8dd\	.	.	.	.	.	8r	.	8dd\J)	.	.
8cc#\J	8ee\J	.	8A\	-ni-	.	.	16an\	ge-	8ee\	-ni-	.
.	.	.	.	.	.	.	16a\	-ni-	.	.	.
!LO:LB:g=original	!	!	!	!	!	!	!	!	!	!	!
=33	=33	=33	=33	=33	=33	=33	=33	=33	=33	=33	=33
8dd\L	8ff#\L	.	4A\	-tu(m)	.	4.ryy	4a\	-tu(m)	(8ff#\L	-tu(m)	.
8cc#\	8ee\	.	.	.	.	.	.	.	8ee\J)	.	.
8dd\J	8ff#\J	.	8A\	no(n)	.	.	8a\	non	8ff#\	no(n)	.
=34	=34	=34	=34	=34	=34	=34	=34	=34	=34	=34	=34
16ee\LL	16gg\LL	.	4C#/	fa-	.	4.ryy	4.a\	fa-	(4gg\	fa-	.
16ee\	16a\	.	.	.	.	.	.	.	.	.	.
16ee\	16gg\	.	.	.	.	.	.	.	.	.	.
16ee\	16a\	.	.	.	.	.	.	.	.	.	.
16dd\	16gg\	.	8D/	[[-ctum]]-	.	.	.	.	8ff#\)	-[[ctum]]-	.
16dd\JJ	16a\JJ	.	.	.	.	.	.	.	.	.	.
!	!	!	!LO:LB:g=original	!	!	!	!	!	!	!	!
=35	=35	=35	=35	=35	=35	=35	=35	=35	=35	=35	=35
4cc#\	4ee\	.	4AA/	-ctu(m)	.	4.ryy	4a\	-ctu(m)	4ee\	-ctum	.
8r	8r	.	8r	.	.	.	8r	.	8r	.	.
=36	=36	=36	=36	=36	=36	=36	=36	=36	=36	=36	=36
!	!	!LO:DY:a:t=Po.	!	!	!	!	!	!	!	!	!
4a/	4f#/	p	1.r	.	.	4.ryy	4f#\	Con-	4a\	Con-	.
8b/	8g/	.	.	.	.	.	8g\	-sub-	8b\	-ſub-	.
=37	=37	=37	=37	=37	=37	=37	=37	=37	=37	=37	=37
8a/L	8f#/L	.	.	.	.	4.ryy	8f#\L	-stan-	(8a\L	-stan-	.
8g/	8e/	.	.	.	.	.	8e\J	.	8g\J)	.	.
8f#/J	8d/J	.	.	.	.	.	8d\	-ti-	8f#\	-ti-	.
=38	=38	=38	=38	=38	=38	=38	=38	=38	=38	=38	=38
4g/	4e/	.	.	.	.	4.ryy	4e\	-a-	4g\	-a-	.
8a/	8f#/	.	.	.	.	.	8f#\	-lem	8a\	-lem	.
!	!	!	!	!	!	!	!	!	!LO:LB:g=original	!	!
=39	=39	=39	=39	=39	=39	=39	=39	=39	=39	=39	=39
8g/L	8e/L	.	.	.	.	4.ryy	8e\L	Pat-	8g/L	Pa-	.
8f#/	8d/	.	.	.	.	.	8d\J	.	8f#/J	.	.
8e/J	8c#/J	.	.	.	.	.	8c#\	-ri	8e/	-tri	.
=40	=40	=40	=40	=40	=40	=40	=40	=40	=40	=40	=40
(8f#'/L	(8d'/L	.	4.D\	per	.	4.ryy	4.d\	per	4.f#/	per	.
8f#'/	8d'/	.	.	.	.	.	.	.	.	.	.
8f#'/J)	8d'/J)	.	.	.	.	.	.	.	.	.	.
=41	=41	=41	=41	=41	=41	=41	=41	=41	=41	=41	=41
(8g'/L	(8e'/L	.	4.E\	qve(m)	.	4.ryy	4.e\	qve(m)	4.g/	qve(m)	.
8g'/	8e'/	.	.	.	.	.	.	.	.	.	.
8g'/J)	8e'/J)	.	.	.	.	.	.	.	.	.	.
=42	=42	=42	=42	=42	=42	=42	=42	=42	=42	=42	=42
(8a'/L	(8f#'/L	.	4.F#\	o-	.	4.ryy	4.f#\	o-	4.a\	o-	.
8a'/	8f#'/	.	.	.	.	.	.	.	.	.	.
8a'/J)	8f#'/J)	.	.	.	.	.	.	.	.	.	.
!	!	!	!	!	!	!	!LO:LB:g=original	!	!	!	!
=43	=43	=43	=43	=43	=43	=43	=43	=43	=43	=43	=43
(8b'\L	(8g'/L	.	8.G\	.	.	4.ryy	8.g\	.	8.b\	.	.
8b'\	8g'/	.	.	.	.	.	.	.	.	.	.
!	!	!	!	!	!	!	!	!	!	!LO:MO:mod=mni	!
.	.	.	16G\	-mni-	.	.	16g\	-mni-	16b\	-mi-	.
8b'\J)	8g'/J)	.	8G\	-a	.	.	8g\	-a	8b\	-a	.
=44	=44	=44	=44	=44	=44	=44	=44	=44	=44	=44	=44
8ccn\L	8a/L	.	8A\L	fa-	.	4.ryy	8a\L	fa-	8ccn\L	fa-	.
8b\	8g/	.	8G\J	.	.	.	8g\J	.	8b\J	.	.
8a\J	8f#/J	.	8F#\	-cta	.	.	8f#\	-cta	8a\	-cta	.
=45	=45	=45	=45	=45	=45	=45	=45	=45	=45	=45	=45
4b\	8g/L	.	4G\	ſu(n)t	.	4.ryy	4g\	ſu(n)t	4b\	ſu(n)t	.
.	8d/	.	.	.	.	.	.	.	.	.	.
8r	8G/J	.	8r	.	.	.	8r	.	8r	.	.
=46	=46	=46	=46	=46	=46	=46	=46	=46	=46	=46	=46
(8g#X'/L	(8e'/L	.	4.E\	qvi	.	4.ryy	1.r	.	4.ee\	qvi	.
8g#'/	8e'/	.	.	.	.	.	.	.	.	.	.
8g#'/J)	8e'/J)	.	.	.	.	.	.	.	.	.	.
!	!LO:LB:g=original	!	!	!	!	!	!	!	!	!	!
=47	=47	=47	=47	=47	=47	=47	=47	=47	=47	=47	=47
(8a'/L	(8f#'/L	.	4.F#\	pro-	.	4.ryy	.	.	4.ee\	prop-	.
8a'/	8f#'/	.	.	.	.	.	.	.	.	.	.
8a'/J)	8f#'/J)	.	.	.	.	.	.	.	.	.	.
=48	=48	=48	=48	=48	=48	=48	=48	=48	=48	=48	=48
(8b'\L	(8g#X'/L	.	4.G#X\	-pter	.	4.ryy	.	.	4.ee\	-ter	.
8b'\	8g#'/	.	.	.	.	.	.	.	.	.	.
8b'\J)	8g#'/J)	.	.	.	.	.	.	.	.	.	.
!LO:LB:g=original	!	!	!	!	!	!	!	!	!	!	!
=49	=49	=49	=49	=49	=49	=49	=49	=49	=49	=49	=49
(8cc#X'\L	(8a'/L	.	4.A\	nos	.	4.ryy	.	.	4.ee\	nos	.
8cc#'\	8a'/	.	.	.	.	.	.	.	.	.	.
8cc#'\J)	8a'/J)	.	.	.	.	.	.	.	.	.	.
=50	=50	=50	=50	=50	=50	=50	=50	=50	=50	=50	=50
8dd\L	8b/L	.	8B\L	ho-	.	4.ryy	4.r	.	4ee\	ho-	.
8cc#\	8a/	.	8A\J	.	.	.	.	.	.	.	.
8b\J	8g#X/J	.	8G#X\	-mi-	.	.	.	.	8e/	-mi-	.
!	!	!	!LO:LB:g=original	!	!	!	!	!	!	!	!
=51	=51	=51	=51	=51	=51	=51	=51	=51	=51	=51	=51
16cc#\LL	16a\LL	.	4A\	-nes	.	4.ryy	8r	.	4a\	-neſ	.
16aa\	16aa\	.	.	.	.	.	.	.	.	.	.
16ee\	16ee\	.	.	.	.	.	8r	.	.	.	.
16cc#\J	16cc#\J	.	.	.	.	.	.	.	.	.	.
8a\J	8a\J	.	8F#\	et	.	.	8f#\	et	8a\	et	.
!	!	!	!	!	!	!	!	!	!LO:LB:g=original	!	!
=52	=52	=52	=52	=52	=52	=52	=52	=52	=52	=52	=52
!	!	!LO:DY:a:rj:t=f.	!	!	!	!	!	!	!	!	!
16a/LL	16dd\LL	f	8F#\L	pro-	.	4.ryy	8f#\L	pro-	4dd\	pro-	.
16a/	16dd\	.	.	.	.	.	.	.	.	.	.
16gn/	16dd\	.	8E\J	.	.	.	8g\J	.	.	.	.
16g/	16dd\	.	.	.	.	.	.	.	.	.	.
16f#/	16dd\	.	8D\	-pter	.	.	8a\	-pter	8dd\	-pter	.
16f#/JJ	16dd\JJ	.	.	.	.	.	.	.	.	.	.
=53	=53	=53	=53	=53	=53	=53	=53	=53	=53	=53	=53
16g\LL	16b\LL	.	8Gn\	no-	.	4.ryy	8g\	nost-	8b\	nost-	.
16b\	16b\	.	.	.	.	.	.	.	.	.	.
16b\	16dd\	.	8G\	-stra(m)	.	.	8g\	-ra(m)	8g\	-ra(m)	.
16b\	16dd\	.	.	.	.	.	.	.	.	.	.
16b\	16b\	.	8G\	ſa-	.	.	8g\	ſa-	8b\	ſa-	.
16b\JJ	16b\JJ	.	.	.	.	.	.	.	.	.	.
=54	=54	=54	=54	=54	=54	=54	=54	=54	=54	=54	=54
16b\LL	16ee\LL	.	4.G\	-lu-	.	4.ryy	4.g\	-lu-	8ee\L	-lu-	.
16b\	16ee\	.	.	.	.	.	.	.	.	.	.
16b\	16dd\	.	.	.	.	.	.	.	8dd\	.	.
16b\	16dd\	.	.	.	.	.	.	.	.	.	.
16b\	16ee\	.	.	.	.	.	.	.	8ee\J	.	.
16b\JJ	16ee\JJ	.	.	.	.	.	.	.	.	.	.
=55	=55	=55	=55	=55	=55	=55	=55	=55	=55	=55	=55
16cc#\LL	16cc#\LL	.	4A\	-tem	.	4.ryy	4e\	-te(m)	4cc#\	-te(m)	.
16cc#\	16a\	.	.	.	.	.	.	.	.	.	.
16cc#\	16a\	.	.	.	.	.	.	.	.	.	.
16cc#\	16a\	.	.	.	.	.	.	.	.	.	.
16dd\	16ff#\	.	8d\	de-	.	.	8d\	de-	8ff#\	de-	.
16dd\JJ	16ff#\JJ	.	.	.	.	.	.	.	.	.	.
=56	=56	=56	=56	=56	=56	=56	=56	=56	=56	=56	=56
16dd\LL	16ff#\LL	.	8d\	-scen-	.	4.ryy	8a\	-ſcen-	8ff#\	-scen-	.
16ff#\	16dd\	.	.	.	.	.	.	.	.	.	.
16ff#\	16a\	.	8D/	-dit	.	.	8a\	-dit	8ff#\	-dit	.
16ff#\	16f#\JJ	.	.	.	.	.	.	.	.	.	.
16ff#\	16d/LL	.	8D/	de-	.	.	8a\	de-	8ff#\	de-	.
16ff#\JJ	16f#/JJ	.	.	.	.	.	.	.	.	.	.
!	!	!	!	!	!	!	!LO:LB:g=original	!	!	!	!
=57	=57	=57	=57	=57	=57	=57	=57	=57	=57	=57	=57
16ee\LL	16g/LL	.	8A\	-scen-	.	4.ryy	8g\	-scen-	8ee\	-ſcen-	.
16cc#\	16g/	.	.	.	.	.	.	.	.	.	.
16cc#\	16g/	.	8AA/	-dit	.	.	8g\	-dit	8ee\	-di	.
16cc#\	16g/	.	.	.	.	.	.	.	.	.	.
16cc#\	16g/	.	8AA/	de	.	.	8g\	de	8ee\	de	.
16cc#\JJ	16g/JJ	.	.	.	.	.	.	.	.	.	.
=58	=58	=58	=58	=58	=58	=58	=58	=58	=58	=58	=58
16g/LL	16cc#\LL	.	4A\	Cae-	.	4.ryy	4.e\	Cae-	4.ee\	Cae-	.
16g/	16cc#\	.	.	.	.	.	.	.	.	.	.
16g/	16cc#\	.	.	.	.	.	.	.	.	.	.
16g/	16cc#\	.	.	.	.	.	.	.	.	.	.
16g/	16cc#\	.	8AA/	.	.	.	.	.	.	.	.
16g/JJ	16cc#\JJ	.	.	.	.	.	.	.	.	.	.
=59	=59	=59	=59	=59	=59	=59	=59	=59	=59	=59	=59
8ff#L 8a 8f# 8d/	8ff#L 8a 8d/	.	4D/	-lis	.	4.ryy	4f#\	-lis	4dd\	-lis	.
8ff#J 8a 8d/	8ff#J 8a 8d/	.	.	.	.	.	.	.	.	.	.
8r	8r	.	8r	.	.	.	8r	.	8r	.	.
!LO:PB:g=original	!LO:PB:g=original	!	!LO:LB:g=original	!	!	!	!	!	!LO:LB:g=original	!	!
=60||	=60||	=60||	=60||	=60||	=60||	=60||	=60||	=60||	=60||	=60||	=60||
*k[g#c#f#]	*k[g#c#f#]	*	*k[f#c#g#]	*	*	*	*k[c#f#g#]	*	*k[f#g#c#]	*	*
*M4/4	*M4/4	*	*M4/4	*	*	*	*M4/4	*	*M4/4	*	*
*met(c)	*met(C.)	*	*met(c)	*	*	*	*met(C.)	*	*met(C.)	*	*
!LO:TX:t=P:problem=znaki g#, cc#, ff#	!LO:TX:t=P:problem=znaki g#, cc#, ff#	!	!	!	!	!	!	!	!	!	!
!LO:TX:b:t=Et incarnat(us).	!LO:TX:b:t=Et incarnat(us).	!	!	!	!	!	!	!	!LO:TX:t=P:problem=znaki f#, g#, cc#	!	!
!LO:TX:a:i:t=Tardiſsime	!LO:TX:a:i:t=Tardiſsime	!	!LO:TX:t=Tacet	!	!	!	!	!	!LO:TX:t=adagio	!	!
8a\L	8a\L	.	1ryy	.	.	1ryy	0r	.	0r	.	.
16cc#\L	16ee\L	.	.	.	.	.	.	.	.	.	.
16dd\JJ	16ff#\JJ	.	.	.	.	.	.	.	.	.	.
8b\L	8dd\L	.	.	.	.	.	.	.	.	.	.
8a\J	8cc#\J	.	.	.	.	.	.	.	.	.	.
8b\L	16b\LL	.	.	.	.	.	.	.	.	.	.
.	16dd\	.	.	.	.	.	.	.	.	.	.
16g#\L	16b\	.	.	.	.	.	.	.	.	.	.
16b\JJ	16g#\JJ	.	.	.	.	.	.	.	.	.	.
8cc#\L	8a/L	.	.	.	.	.	.	.	.	.	.
8g#\J	8b/J	.	.	.	.	.	.	.	.	.	.
=61	=61	=61	=61	=61	=61	=61	=61	=61	=61	=61	=61
16a\LL	16cc#/LL	.	1ryy	.	.	1ryy	.	.	.	.	.
16cc#\	16a/	.	.	.	.	.	.	.	.	.	.
16cc#\	16a/	.	.	.	.	.	.	.	.	.	.
16cc#\JJ	16a/JJ	.	.	.	.	.	.	.	.	.	.
16b\LL	16e/LL	.	.	.	.	.	.	.	.	.	.
16g#\	16b/	.	.	.	.	.	.	.	.	.	.
16g#\	16dd/	.	.	.	.	.	.	.	.	.	.
16g#\JJ	16b/JJ	.	.	.	.	.	.	.	.	.	.
16a\LL	16cc#/LL	.	.	.	.	.	.	.	.	.	.
16cc#\	16a/	.	.	.	.	.	.	.	.	.	.
16cc#\	16a/	.	.	.	.	.	.	.	.	.	.
16cc#\JJ	16a/JJ	.	.	.	.	.	.	.	.	.	.
16b\LL	16e/LL	.	.	.	.	.	.	.	.	.	.
16g#\	16b/	.	.	.	.	.	.	.	.	.	.
16g#\	16dd/	.	.	.	.	.	.	.	.	.	.
16g#\JJ	16b/JJ	.	.	.	.	.	.	.	.	.	.
=62	=62	=62	=62	=62	=62	=62	=62	=62	=62	=62	=62
8a/L	16cc#/LL	.	1ryy	.	.	1ryy	1r	.	1r	.	.
.	16a/	.	.	.	.	.	.	.	.	.	.
8c#/	16a/	.	.	.	.	.	.	.	.	.	.
.	16a/JJ	.	.	.	.	.	.	.	.	.	.
8d/	8d/L	.	.	.	.	.	.	.	.	.	.
8e/J	8e/J	.	.	.	.	.	.	.	.	.	.
!LO:TX:t=P:problem=mixed beam	!LO:TX:t=P:problem=mixed beam	!	!	!	!	!	!	!	!	!	!
8.A/L	8.A/L	.	.	.	.	.	.	.	.	.	.
16dd\Jk	16ff#\Jk	.	.	.	.	.	.	.	.	.	.
16cc#\LL	16ee\LL	.	.	.	.	.	.	.	.	.	.
16b\	16dd\	.	.	.	.	.	.	.	.	.	.
16a\	16cc#\	.	.	.	.	.	.	.	.	.	.
16g#\JJ	16b\JJ	.	.	.	.	.	.	.	.	.	.
=63	=63	=63	=63	=63	=63	=63	=63	=63	=63	=63	=63
!	!	!LO:DY:a:t=Po	!	!	!	!	!	!	!	!	!
4a/	8a\L	p	1ryy	.	.	1ryy	4r	.	8a\	Et	.
.	16cc#\L	.	.	.	.	.	.	.	16ee\	in-	.
.	16dd\JJ	.	.	.	.	.	.	.	16ff#\	-car-	.
4r	8b\L	.	.	.	.	.	8r	.	8dd\	-na-	.
.	8a\J	.	.	.	.	.	8a\	Et	8cc#\	-t(us)	.
8a\L	8cc#\L	.	.	.	.	.	8a\	in-	8a\	eſt	.
16cc#\L	16ee\L	.	.	.	.	.	8a\	-car-	16cc#\	in-	.
16dd\JJ	16ff#\JJ	.	.	.	.	.	.	.	16dd\	-car-	.
8b\L	8dd\L	.	.	.	.	.	16e\	-na-	8b\	-na-	.
.	.	.	.	.	.	.	16g#\	-tus	.	.	.
8a\J	8cc#\J	.	.	.	.	.	8a\	eſt	8a\	-t(us)	.
=64	=64	=64	=64	=64	=64	=64	=64	=64	=64	=64	=64
!	!	!	!	!	!	!	!	!	!	!LO:MO:mod=na	!
4r	4r	.	1ryy	.	.	1ryy	4r	.	8.a\	[[eſt]]	na-
.	.	.	.	.	.	.	.	.	16cc#\	-t(us)	.
8r	8r	.	.	.	.	.	8r	.	8f#/	eſt	.
16b\LL	16g#/LL	.	.	.	.	.	16f#\LL	de	16b\LL	de	.
16cc#\JJ	16a/JJ	.	.	.	.	.	16a\JJ	.	16cc#\JJ	.	.
16dd\LL	16b/LL	.	.	.	.	.	16b\LL	Spi-	16dd\LL	Spi-	.
16cc#\	16a/	.	.	.	.	.	16a\JJ	.	16cc#\JJ	.	.
16dd\	16b/	.	.	.	.	.	16b\	-ri-	16dd\	-ri-	.
16cc#\JJ	16a/JJ	.	.	.	.	.	16a\	-tu	16cc#\	-tu	.
!LO:LB:g=original	!LO:LB:g=original	!	!	!	!	!	!LO:LB:g=original	!	!	!	!
8b\L	16g#/LL	.	.	.	.	.	8g#X\	San-	8b\	Sa(n)-	.
.	16e/	.	.	.	.	.	.	.	.	.	.
8g#\J	16g#/	.	.	.	.	.	8g#\	-cto	8b\	-cto	.
.	16b/JJ	.	.	.	.	.	.	.	.	.	.
!	!	!	!	!	!	!	!	!	!LO:LB:g=original	!	!
=65	=65	=65	=65	=65	=65	=65	=65	=65	=65	=65	=65
16a\LL	16cc#/LL	.	1ryy	.	.	1ryy	8a\	ex	8cc#\	ex	.
16cc#\	16a/	.	.	.	.	.	.	.	.	.	.
16cc#\	16a/	.	.	.	.	.	8cc#\	Ma-	8ee\	Ma-	.
16cc#\JJ	16a/JJ	.	.	.	.	.	.	.	.	.	.
16b\LL	16e/LL	.	.	.	.	.	8g#\	-ri-	8b\	-ri-	.
16g#\	16b/	.	.	.	.	.	.	.	.	.	.
16g#\	16dd/	.	.	.	.	.	8b\	-a	8dd\	-a	.
16g#\JJ	16b/JJ	.	.	.	.	.	.	.	.	.	.
16a\LL	16cc#/LL	.	.	.	.	.	8a\	Vir-	8cc#\	Vir-	.
16cc#\	16a/	.	.	.	.	.	.	.	.	.	.
16cc#\	16a/	.	.	.	.	.	8cc#\	-gi-	8ee\	-gi-	.
16cc#\JJ	16a/JJ	.	.	.	.	.	.	.	.	.	.
16b\LL	16e/LL	.	.	.	.	.	4g#\	-ne	8b\	-ne	.
16g#\	16b/	.	.	.	.	.	.	.	.	.	.
16g#\	16dd/	.	.	.	.	.	.	.	8dd\	et	.
16g#\JJ	16b/JJ	.	.	.	.	.	.	.	.	.	.
=66	=66	=66	=66	=66	=66	=66	=66	=66	=66	=66	=66
8r	8cc#\	.	1ryy	.	.	1ryy	2r	.	8cc#\	ho-	.
8a\L	4cc#\	.	.	.	.	.	.	.	8ff#\	-mo	.
*	*	*	*	*	*	*	*	*	*	*ij	*
8ff#\	.	.	.	.	.	.	.	.	8ff#\	et	.
8ee\J	8cc#\	.	.	.	.	.	.	.	8ee\	ho-	.
16dd#X\LL	16b\LL	.	.	.	.	.	4r	.	16dd#X\LL	-mo	.
*	*	*	*	*	*	*	*	*	*	*Xij	*
16cc#\	16ee\	.	.	.	.	.	.	.	16cc#\JJ	.	.
16b\	16dd#X\	.	.	.	.	.	.	.	16b\LL	fac-	.
16a#X\JJ	16cc#\JJ	.	.	.	.	.	.	.	16a#X\JJ	.	.
4b\	4dd#\	.	.	.	.	.	8r	.	8b\	-t(us)	.
.	.	.	.	.	.	.	8f#\	et	8an\	eſt	.
=67	=67	=67	=67	=67	=67	=67	=67	=67	=67	=67	=67
2r	2r	.	1ryy	.	.	1ryy	8e\	ho-	8g#\	ho-	.
.	.	.	.	.	.	.	8g#\	-mo	8g#\	-mo	.
.	.	.	.	.	.	.	8a\	fac-	8a\	fac-	.
.	.	.	.	.	.	.	8b\	-t(us)	8b\	-t(us)	.
16e/LL	16gg#\LL	.	.	.	.	.	4e\	eſt	4e/	eſt	.
16g#/	16ee\	.	.	.	.	.	.	.	.	.	.
16g#/	16ee\	.	.	.	.	.	.	.	.	.	.
16g#/JJ	16ee\JJ	.	.	.	.	.	.	.	.	.	.
16f#/LL	16b\LL	.	.	.	.	.	4r	.	4r	.	.
16d#X/	16ff#\	.	.	.	.	.	.	.	.	.	.
16d#/	16aa\	.	.	.	.	.	.	.	.	.	.
16d#/JJ	16ff#\JJ	.	.	.	.	.	.	.	.	.	.
=68	=68	=68	=68	=68	=68	=68	=68	=68	=68	=68	=68
16e/LL	16gg#\LL	.	1ryy	.	.	1ryy	1r	.	1r	.	.
16g#/	16ee\	.	.	.	.	.	.	.	.	.	.
16g#/	16ee\	.	.	.	.	.	.	.	.	.	.
16g#/JJ	16ee\JJ	.	.	.	.	.	.	.	.	.	.
16f#/LL	16b\LL	.	.	.	.	.	.	.	.	.	.
16d#X/	16ff#\	.	.	.	.	.	.	.	.	.	.
16d#/	16aa\	.	.	.	.	.	.	.	.	.	.
16d#/JJ	16ff#\JJ	.	.	.	.	.	.	.	.	.	.
16e/LL	16gg#\LL	.	.	.	.	.	.	.	.	.	.
16g#/	16ee\	.	.	.	.	.	.	.	.	.	.
16g#/	16ee\	.	.	.	.	.	.	.	.	.	.
16g#/JJ	16ee\JJ	.	.	.	.	.	.	.	.	.	.
8a\L	8a/L	.	.	.	.	.	.	.	.	.	.
8b\J	8b/J	.	.	.	.	.	.	.	.	.	.
!	!	!	!	!	!	!	!	!	!LO:LB:g=original	!	!
=69	=69	=69	=69	=69	=69	=69	=69	=69	=69	=69	=69
!	!	!LO:DY:a:t=Po.	!	!	!	!	!	!	!	!	!
8e/L	8e/L	p	1ryy	.	.	1ryy	8g#\	Cru-	8ee\	Cru-	.
16b/L	16g#/L	.	.	.	.	.	16g#\LL	-ci-	16b\LL	-ci-	.
16cc#/JJ	16a/JJ	.	.	.	.	.	16a\JJ	.	16cc#\JJ	.	.
8a/L	8f#/L	.	.	.	.	.	8f#\	-fi-	8a\	-fi-	.
8g#/J	8e/J	.	.	.	.	.	8e\	-xus	8g#\	-xus	.
!	!	!	!	!	!	!	!LO:LB:g=original	!	!	!	!
*	*	*	*	*	*	*	*	*ij	*	*ij	*
8g#/L	8b\L	.	.	.	.	.	8e\	Cru-	8g#\	Cru-	.
16g#/L	16b\L	.	.	.	.	.	16b\LL	-ci-	16g#\LL	-ci-	.
16a/JJ	16cc#\JJ	.	.	.	.	.	16cc#\JJ	.	16a\JJ	.	.
8f#/L	8a/L	.	.	.	.	.	8a\	-fi-	8f#/	-fi-	.
8e/J	8g#/J	.	.	.	.	.	8g#\	-xus	8e/	-xus	.
*	*	*	*	*	*	*	*	*Xij	*	*Xij	*
!LO:LB:g=original	!LO:LB:g=original	!	!	!	!	!	!	!	!	!	!
=70	=70	=70	=70	=70	=70	=70	=70	=70	=70	=70	=70
2r	8a\L	.	1ryy	.	.	1ryy	8e\	e-	8a\	e-	.
.	16cc#\L	.	.	.	.	.	8a\	-ti-	16ee\LL	-ti-	.
.	16dd\JJ	.	.	.	.	.	.	.	16ff#\JJ	.	.
.	8b\L	.	.	.	.	.	8g#\	-am	8dd\	-a(m)	.
.	8a\J	.	.	.	.	.	8a\	pro	8cc#\	pro	.
!	!LO:SIC:v:s=8a/L	!	!	!	!	!	!	!	!	!	!
8r	8g#/L	.	.	.	.	.	8a\	no-	8cc#\	no-	.
8b\	8g#/J	.	.	.	.	.	8g#\	-bis	8b\	-bis	.
16b\LL	16e/LL	.	.	.	.	.	8r	.	8r	.	.
16g#\	16b/	.	.	.	.	.	.	.	.	.	.
16g#\	16cc#/	.	.	.	.	.	8g#\	ſub	8b\	ſub	.
16g#\JJ	16b/JJ	.	.	.	.	.	.	.	.	.	.
=71	=71	=71	=71	=71	=71	=71	=71	=71	=71	=71	=71
16a\LL	16cc#/LL	.	1ryy	.	.	1ryy	8a\	Pon-	8cc#\	Pon-	.
16cc#\	16a/	.	.	.	.	.	.	.	.	.	.
16cc#\	16a/	.	.	.	.	.	8cc#\	-ti-	8ee\	-ti-	.
16cc#\JJ	16a/JJ	.	.	.	.	.	.	.	.	.	.
16b\LL	16e/LL	.	.	.	.	.	8g#\	-o	8b\	-o	.
16g#\	16b/	.	.	.	.	.	.	.	.	.	.
16g#\	16dd/	.	.	.	.	.	8b\	Pi-	8dd\	Pi-	.
16g#\JJ	16b/JJ	.	.	.	.	.	.	.	.	.	.
16a\LL	16cc#\LL	.	.	.	.	.	8a\	-la-	8cc#\	-la-	.
16cc#\	16a\	.	.	.	.	.	.	.	.	.	.
16cc#\	16a\	.	.	.	.	.	8cc#\	-to	8ee\	-to	.
16cc#\JJ	16a\JJ	.	.	.	.	.	.	.	.	.	.
16b\LL	16e/LL	.	.	.	.	.	8g#\	Paſ-	8b\	paſ-	.
16g#\	16b/	.	.	.	.	.	.	.	.	.	.
16g#\	16dd/	.	.	.	.	.	8b\	-sus	8dd\	-sus	.
16g#\JJ	16b/JJ	.	.	.	.	.	.	.	.	.	.
!	!	!	!	!	!	!	!	!	!LO:LB:g=original	!	!
=72	=72	=72	=72	=72	=72	=72	=72	=72	=72	=72	=72
8a/L	16cc#\LL	.	1ryy	.	.	1ryy	8a\	et	8cc#\	et	.
.	16a\	.	.	.	.	.	.	.	.	.	.
8c#/	16a\	.	.	.	.	.	8c#\	ſe-	8cc#\	ſe-	.
.	16a\JJ	.	.	.	.	.	.	.	.	.	.
!	!	!	!	!	!	!	!LO:LB:g=original	!	!	!	!
8d/	8d/L	.	.	.	.	.	8d\	-pul-	8dd\	-pul-	.
8e/J	8e/J	.	.	.	.	.	8e\	-t(us)	8ee\	-t(us)	.
8.a\L	8.a\L	.	.	.	.	.	8.A/	eſt	8.a\	eſt	.
16ff#\Jk	16dd\Jk	.	.	.	.	.	16d\	ſe-	16ff#\	ſe-	.
16ee\LL	16cc#\LL	.	.	.	.	.	8B/	-pul-	16ee\LL	-pul-	.
16dd\	16b\	.	.	.	.	.	.	.	16dd\JJ	.	.
16cc#\	16a\	.	.	.	.	.	8e\	-t(us)	16cc#\LL	-t(us)	.
16b\JJ	16g#\JJ	.	.	.	.	.	.	.	16b\JJ	.	.
=73	=73	=73	=73	=73	=73	=73	=73	=73	=73	=73	=73
!	!	!LO:DY:a:rj:t=f.	!	!	!	!	!	!	!	!	!
8cc#\L	8a\L	f	1ryy	.	.	1ryy	4c#\	eſt	4a\	eſt	.
16cc#\L	16ee\L	.	.	.	.	.	.	.	.	.	.
16dd\JJ	16ff#\JJ	.	.	.	.	.	.	.	.	.	.
8b\L	8dd\L	.	.	.	.	.	4r	.	4r	.	.
8a\J	8cc#\J	.	.	.	.	.	.	.	.	.	.
8.f#/L	8.b\L	.	.	.	.	.	2r	.	2r	.	.
16dd/Jk	16ff#\Jk	.	.	.	.	.	.	.	.	.	.
16cc#\LL	16ee\LL	.	.	.	.	.	.	.	.	.	.
16b\	16dd\	.	.	.	.	.	.	.	.	.	.
16a\	16cc#\	.	.	.	.	.	.	.	.	.	.
16g#\JJ	16b\JJ	.	.	.	.	.	.	.	.	.	.
=74	=74	=74	=74	=74	=74	=74	=74	=74	=74	=74	=74
8a/L	8a/L	.	1ryy	.	.	1ryy	1ryy	.	1r	.	.
8c#/	8c#/|	.	.	.	.	.	.	.	.	.	.
8d/	8d/|	.	.	.	.	.	.	.	.	.	.
8e/J	8e/J|	.	.	.	.	.	.	.	.	.	.
2c#/	2A/	.	.	.	.	.	.	.	.	.	.
!LO:LB:g=original	!LO:LB:g=original	!	!	!	!	!	!	!	!	!	!
=75||	=75||	=75||	=75||	=75||	=75||	=75||	=75||	=75||	=75||	=75||	=75||
*k[c#f#]	*k[c#f#]	*	*k[c#f#]	*	*	*	*k[c#f#]	*	*	*	*
*M3/8	*M3/8	*	*M3/8	*	*	*	*M3/8	*	*M3/8	*	*
!	!LO:TX:t=P:problem=mixed beam	!	!	!	!	!	!	!	!LO:TX:t=P:problem=brak zmiany tonacji, jest dopiero w tt.113	!	!
!LO:TX:t=allo	!LO:TX:t=vivace	!	!LO:TX:t=vivace	!	!	!	!LO:TX:a:rj:t=Vivace	!	!LO:TX:a:rj:t=Vivace	!	!
8f#/L	8dd\L	.	8D\	Et	.	4.ryy	8f#\	Et	8dd\	Et	.
8f#/	8d/	.	8D\	re-	.	.	8f#\	re-	8dd\	re-	.
8a/J	8dd\J	.	8D\	-sur-	.	.	8f#\	-ſur-	8dd\	-sur-	.
=76	=76	=76	=76	=76	=76	=76	=76	=76	=76	=76	=76
8g/L	8b\L	.	4G\	-re-	.	4.ryy	4g\	-re-	4b\	-re-	.
8b/	8gg\	.	.	.	.	.	.	.	.	.	.
8b/J	8dd\J	.	8G\	-xit	.	.	8b\	-xit	8b\	-xit	.
=77	=77	=77	=77	=77	=77	=77	=77	=77	=77	=77	=77
16cc#\LL	16cc#\LL	.	8A\	ter-	.	4.ryy	8a\	ter-	16cc#\LL	ter-	.
16b\	16dd\	.	.	.	.	.	.	.	16dd\JJ	.	.
16cc#\	16ee\	.	8A\	-ti-	.	.	8a\	-ti-	16ee\LL	-ti-	.
16dd\	16ff#\	.	.	.	.	.	.	.	16ff#\JJ	.	.
!	!	!	!	!	!	!	!	!	!LO:LB:g=original	!	!
16ee\	16gg\	.	8A\	-a	.	.	8a\	-a	(16gg\LL	-a	.
16cc#\JJ	16ee\JJ	.	.	.	.	.	.	.	16ee\JJ)	.	.
=78	=78	=78	=78	=78	=78	=78	=78	=78	=78	=78	=78
8dd\L	8ff#\L	.	8D\	di-	.	4.ryy	8a\	di-	8ff#\	di-	.
8ff#\	8dd\	.	8D\	-e	.	.	8a\	-e	8dd\	-e	.
!	!	!	!	!	!	!	!LO:LB:g=original	!	!	!	!
8dd\J	8a\J	.	8D\	ſe-	.	.	8f#\	ſe-	8dd\	ſe-	.
=79	=79	=79	=79	=79	=79	=79	=79	=79	=79	=79	=79
!	!LO:TX:t=P:problem=mixed beam	!	!	!	!	!	!	!	!	!	!
8dd\L	8b/L	.	8G\	-cu(n)-	.	4.ryy	8g\	-cu(n)-	8b\	-cu(n)-	.
8b\	8G/	.	8G\	-du(m)	.	.	8g\	-du(m)	8b\	-du(m)	.
8b\J	8dd\J	.	8G\	ſcri-	.	.	8b\	ſcri-	8b\	ſcrip-	.
=80	=80	=80	=80	=80	=80	=80	=80	=80	=80	=80	=80
16cc#\LL	16cc#\LL	.	8A\	-ptu-	.	4.ryy	8a\	-ptu-	16cc#\LL	-tu-	.
16b\	16dd\	.	.	.	.	.	.	.	16b\JJ	.	.
16cc#\	16ee\	.	8A\	-raſ	.	.	8a\	-raſ	16cc#\LL	-raſ	.
16dd\	16ff#\	.	.	.	.	.	.	.	16dd\JJ	.	.
16ee\	16gg\	.	16A\	et	.	.	16a\	et	16ee\	et	.
16cc#\JJ	16ee\JJ	.	16A\	as-	.	.	16a\	as-	16cc#\	as-	.
!	!	!	!LO:LB:g=original	!	!	!	!	!	!	!	!
=81	=81	=81	=81	=81	=81	=81	=81	=81	=81	=81	=81
!	!LO:TX:t=P:problem=mixed beam	!	!	!	!	!	!	!	!	!	!
16dd\LL	16ff#\LL	.	8d\	-cen-	.	4.ryy	8a\	-cen-	8dd\	-cen-	.
16ff#\	16d/	.	.	.	.	.	.	.	.	.	.
16ff#\	16f#/	.	8D\	-dit	.	.	8a\	-dit	8dd\	-dit	.
16ff#\	16a/JJ	.	.	.	.	.	.	.	.	.	.
16ee\	16cc#\LL	.	8G\	in	.	.	8a\	in	8ee\	in	.
16cc#\JJ	16ee\JJ	.	.	.	.	.	.	.	.	.	.
=82	=82	=82	=82	=82	=82	=82	=82	=82	=82	=82	=82
8dd\L	8ff#\L	.	8D/	Cae-	.	4.ryy	8a\	Cae-	8ff#\	Cae-	.
8dd\J	8ff#\J	.	8D/	-lu(m)	.	.	8a\	-lum	8ff#\	-lu(m)	.
8r	8r	.	8r	.	.	.	8r	.	8r	.	.
=83	=83	=83	=83	=83	=83	=83	=83	=83	=83	=83	=83
16dd\LL	16ff#\LL	.	8D/	ſe-	.	4.ryy	8a\	ſe-	8dd\	ſe-	.
16dd\	16ff#\	.	.	.	.	.	.	.	.	.	.
16ff#\	16dd\	.	8D/	-det	.	.	8a\	-det	8ff#\	-det	.
16ff#\	16dd\	.	.	.	.	.	.	.	.	.	.
16dd\	16ff#\	.	8D/	ad	.	.	8a\	ad	8dd\	ad	.
16dd\JJ	16ff#\JJ	.	.	.	.	.	.	.	.	.	.
!	!	!	!	!	!	!	!	!	!LO:LB:g=original	!	!
=84	=84	=84	=84	=84	=84	=84	=84	=84	=84	=84	=84
16cc#\LL	16ee\LL	.	8.A\	dex-	.	4.ryy	8.a\	dex-	8.ee\	dex-	.
16cc#\	16ee\	.	.	.	.	.	.	.	.	.	.
16b\	16dd\	.	.	.	.	.	.	.	.	.	.
16b\	16dd\	.	16A\	-te-	.	.	16a\	-te-	16dd\	-te-	.
16a\	16cc#\	.	8A\	-ra(m)	.	.	8a\	-ra(m)	8cc#\	-ra(m)	.
16a\JJ	16cc#\JJ	.	.	.	.	.	.	.	.	.	.
=85	=85	=85	=85	=85	=85	=85	=85	=85	=85	=85	=85
16b\LL	16dd\LL	.	8G#X\	Pat-	.	4.ryy	8e\	Pat-	8dd\	Pat-	.
16b\	16dd\	.	.	.	.	.	.	.	.	.	.
16b\	16dd\	.	8G#\	-ris	.	.	8e\	-ris	8dd\	-ris	.
16b\	16dd\	.	.	.	.	.	.	.	.	.	.
!	!	!	!	!	!	!	!LO:LB:g=original	!	!	!	!
16a\	16cc#\	.	8A\	et	.	.	8e\	et	8cc#\	et	.
16a\JJ	16cc#\JJ	.	.	.	.	.	.	.	.	.	.
!LO:LB:g=original	!LO:LB:g=original	!	!	!	!	!	!	!	!	!	!
=86	=86	=86	=86	=86	=86	=86	=86	=86	=86	=86	=86
16g#X/LL	16b\LL	.	8.E\	i-	.	4.ryy	8.e\	i-	8.b\	i-	.
16g#/	16ee\	.	.	.	.	.	.	.	.	.	.
16g#/	16ee\	.	.	.	.	.	.	.	.	.	.
16g#/	16ee\	.	16E\	-te-	.	.	16e\	-te-	16b\	-te-	.
16a/	16cc#\	.	16E\	-ru(m)	.	.	16e\	-ru(m)	16cc#\	-ru(m)	.
16a/JJ	16a\JJ	.	16E\	ven-	.	.	16e\	ven-	16cc#\	ven-	.
=87	=87	=87	=87	=87	=87	=87	=87	=87	=87	=87	=87
!LO:TX:b:t=P:problem=# below	!	!	!	!	!	!	!	!	!	!	!
16g#X/LL	16b/LL	.	8E\	-tu-	.	4.ryy	8e\	-tu-	8dd\	-tu-	.
16g#/	16e/	.	.	.	.	.	.	.	.	.	.
16b/	16e/	.	8G#X\	-rus	.	.	8e\	-rus	8dd\	-rus	.
16b/	16e/	.	.	.	.	.	.	.	.	.	.
!	!	!	!LO:LB:g=original	!	!	!	!	!	!	!	!
16cc#/	16a/	.	16A\	eſt	.	.	16e\	eſt	16cc#\	eſt	.
16a/JJ	16cc#/JJ	.	16A\	cu(m)	.	.	16e\	cu(m)	16cc#\	cu(m)	.
=88	=88	=88	=88	=88	=88	=88	=88	=88	=88	=88	=88
16g#X/LL	16b/LL	.	8.E\	glo-	.	4.ryy	8.e\	glo-	8.b\	glo-	.
16g#/	16e/	.	.	.	.	.	.	.	.	.	.
16g#/	16g#X/	.	.	.	.	.	.	.	.	.	.
16g#/	16b/	.	16E\	-ri-	.	.	16e\	-ri-	16b\	-ri-	.
16g#/	16ee/	.	8E\	-a	.	.	8e\	-a	8b\	-a	.
16g#/JJ	16dd/JJ	.	.	.	.	.	.	.	.	.	.
=89	=89	=89	=89	=89	=89	=89	=89	=89	=89	=89	=89
16a\LL	16cc#\LL	.	8.A\	ju-	.	4.ryy	8.e\	ju-	8.cc#\	ju-	.
16cc#\	16aa\	.	.	.	.	.	.	.	.	.	.
16cc#\	16ee\	.	.	.	.	.	.	.	.	.	.
16cc#\	16cc#\	.	16A\	-di-	.	.	16e\	-di-	16ee\	-di-	.
16cc#\	16ee\	.	16E\	-ca-	.	.	16e\	-ca-	16ee\	-ca-	.
16cc#\JJ	16dd\JJ	.	16E\	-re	.	.	16g#X\	-re	16ee\	-re	.
!	!	!	!	!	!	!	!	!	!LO:LB:g=original	!	!
=90	=90	=90	=90	=90	=90	=90	=90	=90	=90	=90	=90
16a\LL	16cc#\LL	.	8F#\	vi-	.	4.ryy	8a\	vi-	8cc#\	vi-	.
16cc#\	16a\	.	.	.	.	.	.	.	.	.	.
16cc#\	16a\	.	8F#\	-vos	.	.	8f#\	-vos	8cc#\	-vos	.
16cc#\	16a\	.	.	.	.	.	.	.	.	.	.
16dd\	16b\	.	8D\	et	.	.	8f#\	et	8dd\	et	.
16b\JJ	16dd\JJ	.	.	.	.	.	.	.	.	.	.
!	!	!	!	!	!	!	!LO:LB:g=original	!	!	!	!
=91	=91	=91	=91	=91	=91	=91	=91	=91	=91	=91	=91
16a\LL	16cc#\LL	.	4E\	mor-	.	4.ryy	(8a\L	mor-	4cc#\	mor-	.
16cc#\	16aa\	.	.	.	.	.	.	.	.	.	.
16cc#\	16aa\	.	.	.	.	.	8e\J)	.	.	.	.
16cc#\	16aa\	.	.	.	.	.	.	.	.	.	.
16b\	16gg#X\	.	8E\	-tu-	.	.	8e\	-tu-	8b\	-tu-	.
16b\JJ	16gg#\JJ	.	.	.	.	.	.	.	.	.	.
=92	=92	=92	=92	=92	=92	=92	=92	=92	=92	=92	=92
!	!LO:TX:t=P:problem=mixed beam	!	!	!	!	!	!	!	!	!	!
4cc#\	8aa\L	.	4AA/	-os	.	4.ryy	4e\	-os	4cc#\	-os	.
.	8a/J	.	.	.	.	.	.	.	.	.	.
8r	8r	.	8r	.	.	.	8r	.	8r	.	.
=93	=93	=93	=93	=93	=93	=93	=93	=93	=93	=93	=93
!	!	!LO:DY:a:t=Po	!	!	!	!	!	!	!	!	!
4.r	4cc#\	p	1.r	.	.	4.ryy	1.r	.	4ee\	Cu-	.
.	8dd\	.	.	.	.	.	.	.	8ff#\	-jus	.
=94	=94	=94	=94	=94	=94	=94	=94	=94	=94	=94	=94
4.A/	8cc#\L	.	.	.	.	4.ryy	.	.	8ee\	re-	.
.	8b\	.	.	.	.	.	.	.	8dd\	-gni	.
.	8a\J	.	.	.	.	.	.	.	8cc#\	no(n)	.
=95	=95	=95	=95	=95	=95	=95	=95	=95	=95	=95	=95
4.r	4b\	.	.	.	.	4.ryy	.	.	4dd\	e-	.
.	8cc#\	.	.	.	.	.	.	.	8ee\	-rit	.
=96	=96	=96	=96	=96	=96	=96	=96	=96	=96	=96	=96
4.e/	8b\L	.	.	.	.	4.ryy	.	.	8dd\L	fi-	.
.	8a\	.	.	.	.	.	.	.	8cc#\J	.	.
.	8g#X\J	.	.	.	.	.	.	.	8b\	-nis	.
=97	=97	=97	=97	=97	=97	=97	=97	=97	=97	=97	=97
!LO:TX:t=1	!	!	!	!	!	!	!	!	!	!	!
4.r	4ee\	.	1.r	.	.	4.ryy	1.r	.	1.r	.	.
.	8ff#\	.	.	.	.	.	.	.	.	.	.
!	!LO:LB:g=original	!	!	!	!	!	!	!	!	!	!
=98	=98	=98	=98	=98	=98	=98	=98	=98	=98	=98	=98
4.A/	8ee\L	.	.	.	.	4.ryy	.	.	.	.	.
.	8dd\	.	.	.	.	.	.	.	.	.	.
.	8cc#\J	.	.	.	.	.	.	.	.	.	.
=99	=99	=99	=99	=99	=99	=99	=99	=99	=99	=99	=99
4.r	4dd\	.	.	.	.	4.ryy	.	.	.	.	.
.	8ee\	.	.	.	.	.	.	.	.	.	.
=100	=100	=100	=100	=100	=100	=100	=100	=100	=100	=100	=100
4.e/	8dd\L	.	.	.	.	4.ryy	.	.	.	.	.
.	8cc#\	.	.	.	.	.	.	.	.	.	.
.	8b\J	.	.	.	.	.	.	.	.	.	.
!LO:LB:g=original	!	!	!LO:LB:g=original	!	!	!	!	!	!	!	!
=101	=101	=101	=101	=101	=101	=101	=101	=101	=101	=101	=101
!	!	!LO:DY:a:rj:t=f.	!	!	!	!	!	!	!	!	!
16a/LL	16cc#\LL	f	4AA/	et	.	4.ryy	4e\	et	4cc#\	et	.
16a/	16cc#\	.	.	.	.	.	.	.	.	.	.
16a/	16cc#\	.	.	.	.	.	.	.	.	.	.
16a/	16cc#\	.	.	.	.	.	.	.	.	.	.
16g#X/	16b\	.	8E\	vi-	.	.	8e\	vi-	8b\	vi-	.
16g#/JJ	16b\JJ	.	.	.	.	.	.	.	.	.	.
=102	=102	=102	=102	=102	=102	=102	=102	=102	=102	=102	=102
!	!	!	!	!	!	!	!LO:N:vis=4.	!	!	!	!
16b\LL	16dd\LL	.	(8E\L	-vi-	.	4.ryy	4e\	-vi-	4dd\	-vi-	.
16b\	16dd\	.	.	.	.	.	.	.	.	.	.
16b\	16dd\	.	8G#X\J)	.	.	.	.	.	.	.	.
16b\	16dd\	.	.	.	.	.	.	.	.	.	.
16a\	16cc#\	.	8A\	-fi-	.	.	8e\	-fi-	8cc#\	-fi-	.
16a\JJ	16cc#\JJ	.	.	.	.	.	.	.	.	.	.
=103	=103	=103	=103	=103	=103	=103	=103	=103	=103	=103	=103
16a\LL	16cc#\LL	.	8AA/L	-can-	.	4.ryy	4.e\	-can-	4.cc#\	-can-	.
16cc#\	16aa\	.	.	.	.	.	.	.	.	.	.
16cc#\	16aa\	.	16AA/L	.	.	.	.	.	.	.	.
16cc#\	16aa\	.	16BB/	.	.	.	.	.	.	.	.
16cc#\	16aa\	.	16C#/	.	.	.	.	.	.	.	.
16cc#\JJ	16aa\JJ	.	16D/JJ	.	.	.	.	.	.	.	.
!	!	!	!	!	!	!	!	!	!LO:LB:g=original	!	!
=104	=104	=104	=104	=104	=104	=104	=104	=104	=104	=104	=104
16b/LL	16gg#X\LL	.	4E\	-te(m)	.	4.ryy	4e\	-te(m)	4b\	-te(m)	.
16g#X/	16ee\	.	.	.	.	.	.	.	.	.	.
16g#/	16b\	.	.	.	.	.	.	.	.	.	.
16g#/	16g#X\JJ	.	.	.	.	.	.	.	.	.	.
16g#/	8e/	.	8r	.	.	.	8r	.	8r	.	.
16g#/JJ	.	.	.	.	.	.	.	.	.	.	.
=105	=105	=105	=105	=105	=105	=105	=105	=105	=105	=105	=105
16cc#\LL	16ee\LL	.	8C#/L	qvi	.	4.ryy	4cc#\	qvi	4ee\	qvi	.
16cc#\	16ee\	.	.	.	.	.	.	.	.	.	.
16cc#\	16ee\	.	8D/J	.	.	.	.	.	.	.	.
16cc#\	16ee\	.	.	.	.	.	.	.	.	.	.
16cc#\	16ee\	.	8E\	ex	.	.	8cc#\	ex	8ee\	ex	.
16cc#\JJ	16ee\JJ	.	.	.	.	.	.	.	.	.	.
=106	=106	=106	=106	=106	=106	=106	=106	=106	=106	=106	=106
16cc#\LL	16ee\LL	.	8C#/L	Pa-	.	4.ryy	4cc#\	Pa-	4ee\	Pa-	.
16cc#\	16ee\	.	.	.	.	.	.	.	.	.	.
16cc#\	16ee\	.	8D/J	.	.	.	.	.	.	.	.
16cc#\	16ee\	.	.	.	.	.	.	.	.	.	.
16cc#\	16ee\	.	8E\	-tre	.	.	8cc#\	-tre	8ee\	-tre	.
16cc#\JJ	16ee\JJ	.	.	.	.	.	.	.	.	.	.
=107	=107	=107	=107	=107	=107	=107	=107	=107	=107	=107	=107
16cc#\LL	16ee\LL	.	4F#\	fi-	.	4.ryy	4f#\	fi-	8ee\L	fi-	.
16cc#\	16ee\	.	.	.	.	.	.	.	.	.	.
16b\	16dd\	.	.	.	.	.	.	.	8dd\J	.	.
16b\	16dd\	.	.	.	.	.	.	.	.	.	.
16a\	16cc#\	.	8F#\	-li-	.	.	8f#\	-li-	8cc#\	-li-	.
16a\JJ	16cc#\JJ	.	.	.	.	.	.	.	.	.	.
=108	=108	=108	=108	=108	=108	=108	=108	=108	=108	=108	=108
16cc#\LL	16ee\LL	.	8F#\	-o-	.	4.ryy	8f#\	-o-	8ee\	-o-	.
16cc#\	16ee\	.	.	.	.	.	.	.	.	.	.
16b\	16dd\	.	8F#\	-qve	.	.	8f#\	-qve	8dd\	-qve	.
16b\	16dd\	.	.	.	.	.	.	.	.	.	.
16a\	16cc#\	.	8F#\	pro-	.	.	8f#\	pro-	8cc#\	pro-	.
16a\JJ	16cc#\JJ	.	.	.	.	.	.	.	.	.	.
!	!LO:LB:g=original	!	!LO:LB:g=original	!	!	!	!LO:LB:g=original	!	!	!	!
=109	=109	=109	=109	=109	=109	=109	=109	=109	=109	=109	=109
16b\LL	16dd\LL	.	8BB/L	-ce-	.	4.ryy	4b\	-ce-	4dd\	-ce-	.
16b\	16dd\	.	.	.	.	.	.	.	.	.	.
16b\	16dd\	.	8C#/J	.	.	.	.	.	.	.	.
16b\	16dd\	.	.	.	.	.	.	.	.	.	.
16b\	16dd\	.	8D/	-dit	.	.	8b\	-dit	8dd\	-dit	.
16b\JJ	16dd\JJ	.	.	.	.	.	.	.	.	.	.
=110	=110	=110	=110	=110	=110	=110	=110	=110	=110	=110	=110
16b\LL	16dd\LL	.	8BB/L	qvi	.	4.ryy	4b\	qvi	4dd\	qvi	.
16b\	16dd\	.	.	.	.	.	.	.	.	.	.
16b\	16dd\	.	8C#/J	.	.	.	.	.	.	.	.
16b\	16dd\	.	.	.	.	.	.	.	.	.	.
16b\	16dd\	.	8D/	cu(m)	.	.	8b\	cu(m)	8dd\	cu(m)	.
16b\JJ	16dd\JJ	.	.	.	.	.	.	.	.	.	.
!LO:LB:g=original	!	!	!	!	!	!	!	!	!	!	!
=111	=111	=111	=111	=111	=111	=111	=111	=111	=111	=111	=111
16b/LL	16dd\LL	.	8E\	Pa-	.	4.ryy	8e\	Pa-	8dd\	Pa-	.
16b/	16dd\	.	.	.	.	.	.	.	.	.	.
16a/	16cc#\	.	8E\	-tre	.	.	8e\	-tre	8cc#\	-tre	.
16a/	16cc#\	.	.	.	.	.	.	.	.	.	.
16g#X/	16b\	.	8E\	et	.	.	8e\	et	8b\	et	.
16g#/JJ	16b\JJ	.	.	.	.	.	.	.	.	.	.
=112	=112	=112	=112	=112	=112	=112	=112	=112	=112	=112	=112
16b/LL	16dd\LL	.	8.E\	fi-	.	4.ryy	8.e\	fi-	8.dd\	fi-	.
16b/	16dd\	.	.	.	.	.	.	.	.	.	.
16a/	16cc#\	.	.	.	.	.	.	.	.	.	.
16a/	16cc#\	.	16E\	-li-	.	.	16e\	-li-	16cc#\	-li-	.
16g#X/	16b\	.	8E\	-o	.	.	8e\	-o	8b\	-o	.
16g#/JJ	16b\JJ	.	.	.	.	.	.	.	.	.	.
!	!	!	!	!	!	!	!	!	!LO:PB:g=original	!	!
=113	=113	=113	=113	=113	=113	=113	=113	=113	=113	=113	=113
*	*	*	*	*	*	*	*	*	*k[f#c#]	*	*
!	!	!	!	!	!	!	!	!	!LO:TX:t=P:problem=znaki f# cc#	!	!
16a\LL	16cc#\LL	.	4A\	ſi-	.	4.ryy	4a\	ſi-	4cc#\	ſi-	.
16cc#\	16aa\	.	.	.	.	.	.	.	.	.	.
16cc#\	16aa\	.	.	.	.	.	.	.	.	.	.
16cc#\	16aa\	.	.	.	.	.	.	.	.	.	.
16cc#\	16aa\	.	8G#X\	-mul	.	.	8a\	-mul	8cc#\	-mul	.
16cc#\JJ	16aa\JJ	.	.	.	.	.	.	.	.	.	.
=114	=114	=114	=114	=114	=114	=114	=114	=114	=114	=114	=114
16cc#\LL	16aa\LL	.	4F#\	a-	.	4.ryy	4a\	a-	4cc#\	a-	.
16a\	16cc#\	.	.	.	.	.	.	.	.	.	.
16a\	16cc#\	.	.	.	.	.	.	.	.	.	.
16a\	16cc#\	.	.	.	.	.	.	.	.	.	.
16a\	16cc#\	.	8E\	-do-	.	.	8a\	-do-	8cc#\	-do-	.
16a\JJ	16cc#\JJ	.	.	.	.	.	.	.	.	.	.
=115	=115	=115	=115	=115	=115	=115	=115	=115	=115	=115	=115
16a\LL	16cc#\LL	.	8D/	-ra-	.	4.ryy	8a\	-ra-	8cc#\	-ra-	.
16cc#\	16a\	.	.	.	.	.	.	.	.	.	.
16cc#\	16a\	.	8D/	-tur	.	.	8a\	-tur	8cc#\	-tur	.
16cc#\	16a\	.	.	.	.	.	.	.	.	.	.
16cc#\	16a\	.	8C#/	et	.	.	8a\	et	8cc#\	et	.
16cc#\JJ	16a\JJ	.	.	.	.	.	.	.	.	.	.
=116	=116	=116	=116	=116	=116	=116	=116	=116	=116	=116	=116
!LO:TX:t=P:problem=mixed beam	!	!	!	!	!	!	!	!	!	!	!
8dd\L	8g#X\L	.	4BB/	con-	.	4.ryy	8dd\L	con-	4dd\	Con-	.
8g#X/	8dd\	.	.	.	.	.	8b\J	.	.	.	.
8a/J	8cc#\J	.	8AA/	-glo-	.	.	8cc#\	-glo-	8cc#\	-glo-	.
!	!	!	!LO:LB:g=original	!	!	!	!	!	!	!	!
=117	=117	=117	=117	=117	=117	=117	=117	=117	=117	=117	=117
16g#X/LL	16b/LL	.	4E\	-ri-	.	4.ryy	4e\	-ri-	4b\	-ri-	.
16g#/	16g#X/	.	.	.	.	.	.	.	.	.	.
16g#/	16e/	.	.	.	.	.	.	.	.	.	.
16g#/	16b/	.	.	.	.	.	.	.	.	.	.
16a/	16cc#/	.	8AA/	-fi-	.	.	8e\	-fi-	8cc#\	-fi-	.
16a/JJ	16a/JJ	.	.	.	.	.	.	.	.	.	.
!	!	!	!	!	!	!	!LO:LB:g=original	!	!	!	!
=118	=118	=118	=118	=118	=118	=118	=118	=118	=118	=118	=118
16g#X/LL	16b/LL	.	4.E\	-ca-	.	4.ryy	4.e\	-ca-	(4b\	-ca-	.
16g#/	16e/	.	.	.	.	.	.	.	.	.	.
16g#/	16g#X/	.	.	.	.	.	.	.	.	.	.
16g#/	16b/	.	.	.	.	.	.	.	.	.	.
16g#/	16ee/	.	.	.	.	.	.	.	8cc#\)	[[tur]]-	.
16g#/JJ	16dd/JJ	.	.	.	.	.	.	.	.	.	.
!	!LO:LB:g=original	!	!	!	!	!	!	!	!	!	!
=119	=119	=119	=119	=119	=119	=119	=119	=119	=119	=119	=119
4a/	16cc#\LL	.	4AA/	-tur	.	4.ryy	4e\	-tur	4cc#\	-tur	.
.	16a\	.	.	.	.	.	.	.	.	.	.
.	16a\	.	.	.	.	.	.	.	.	.	.
.	16a\	.	.	.	.	.	.	.	.	.	.
8r	16b\	.	8r	.	.	.	8r	.	8r	.	.
.	16cc#\JJ	.	.	.	.	.	.	.	.	.	.
=120	=120	=120	=120	=120	=120	=120	=120	=120	=120	=120	=120
!	!LO:TX:t=P:problem=mixed beam	!	!	!	!	!	!	!	!	!	!
16f#/LL	16d/LL	.	8D\L	qvi	.	4.ryy	8f#\L	qvi	8f#/L	qvi	.
16f#/	16dd\	.	.	.	.	.	.	.	.	.	.
16gn/	16dd\	.	8E\J	.	.	.	8e\J	.	8g/J	.	.
16g/	16dd\	.	.	.	.	.	.	.	.	.	.
16a/	16dd\	.	8F#\	lo-	.	.	8d\	lo-	8a/	lo-	.
16a/JJ	16dd\JJ	.	.	.	.	.	.	.	.	.	.
!LO:LB:g=original	!	!	!	!	!	!	!	!	!	!	!
=121	=121	=121	=121	=121	=121	=121	=121	=121	=121	=121	=121
!	!LO:TX:t=P:problem=mixed beam	!	!	!	!	!	!	!	!	!	!
16b\LL	16d/LL	.	8Gn\	-cu-	.	4.ryy	8g\	-cu-	8b\	-cu-	.
16b\	16dd\	.	.	.	.	.	.	.	.	.	.
16a\	16dd\	.	8F#\	-t(us)	.	.	8a\	-tus	8a\	-t(us)	.
16a\	16dd\	.	.	.	.	.	.	.	.	.	.
16b\	16dd\	.	8G\	eſt	.	.	8g\	eſt	8b\	eſt	.
16b\JJ	16dd\JJ	.	.	.	.	.	.	.	.	.	.
=122	=122	=122	=122	=122	=122	=122	=122	=122	=122	=122	=122
!	!LO:TX:t=P:problem=mixed beam	!	!	!	!	!	!	!	!	!	!
16f#/LL	16dd\LL	.	8D\L	per	.	4.ryy	8f#\L	per	8f#/L	per	.
16f#/	16d/	.	.	.	.	.	.	.	.	.	.
!LO:TX:b:t=P:problem=♮ below	!	!	!	!	!	!	!	!	!	!	!
16gn/	16d/	.	8E\J	.	.	.	8e\J	.	8g/J	.	.
16g/	16d/	.	.	.	.	.	.	.	.	.	.
!	!	!	!	!	!	!	!	!	!LO:LB:g=original	!	!
16a/	16d/	.	8F#\	Pro-	.	.	8d\	Pro-	8a\	Pro-	.
16a/JJ	16d/JJ	.	.	.	.	.	.	.	.	.	.
=123	=123	=123	=123	=123	=123	=123	=123	=123	=123	=123	=123
!	!LO:TX:t=P:problem=mixed beam	!	!	!	!	!	!	!	!	!	!
16b\LL	16dd\LL	.	8G\L	-phe-	.	4.ryy	8g\L	-phe-	8b\L	-phe-	.
16b\	16d/	.	.	.	.	.	.	.	.	.	.
16a\	16d/	.	8F#\J	.	.	.	8a\J	.	8a\J	.	.
16a\	16d/	.	.	.	.	.	.	.	.	.	.
16b\	16d/	.	8G\	-taſ	.	.	8g\	-taſ	8b\	-tas	.
16b\JJ	16d/JJ	.	.	.	.	.	.	.	.	.	.
=124	=124	=124	=124	=124	=124	=124	=124	=124	=124	=124	=124
!	!LO:TX:t=P:problem=mixed beam	!	!	!	!	!	!	!	!	!	!
16g#X/LL	16e/LL	.	8E\	et	.	4.ryy	8g#X\	et	8ee\	et	.
16g#/	16ee\	.	.	.	.	.	.	.	.	.	.
16a/	16ee\	.	8F#\	u-	.	.	8f#\	u-	8ee\	u-	.
16a/	16ee\	.	.	.	.	.	.	.	.	.	.
16b/	16ee\	.	8G#X\	-na(m)	.	.	8e\	-na(m)	8ee\	-na(m)	.
16b/JJ	16ee\JJ	.	.	.	.	.	.	.	.	.	.
=125	=125	=125	=125	=125	=125	=125	=125	=125	=125	=125	=125
!	!LO:TX:t=P:problem=mixed beam	!	!	!	!	!	!	!	!	!	!
16cc#\LL	16e/LL	.	8A\L	ſan-	.	4.ryy	8a\L	ſa(n)-	4ee\	ſan-	.
16cc#\	16ee\	.	.	.	.	.	.	.	.	.	.
16b\	16ee\	.	8G#X\J	.	.	.	8b\J	.	.	.	.
16b\	16ee\	.	.	.	.	.	.	.	.	.	.
16cc#\	16ee\	.	8A\	-ctam	.	.	8a\	-cta(m)	8ee\	-cta(m)	.
16cc#\JJ	16ee/\J	.	.	.	.	.	.	.	.	.	.
!	!	!	!LO:LB:g=original	!	!	!	!	!	!	!	!
=126	=126	=126	=126	=126	=126	=126	=126	=126	=126	=126	=126
*	*	*	*	*ij	*	*	*	*ij	*	*ij	*
!	!LO:TX:t=P:problem=mixed beam	!	!	!	!	!	!	!	!	!	!
16g#X/LL	16ee\LL	.	8E\	ſan-	.	4.ryy	8g#X\	ſa(n)-	8ee\	ſan-	.
16g#/	16e/	.	.	.	.	.	.	.	.	.	.
16a/	16e/	.	8F#\	-ctam	.	.	8f#\	-cta(m)	8ee\	-cta(m)	.
*	*	*	*	*Xij	*	*	*	*Xij	*	*Xij	*
16a/	16e/	.	.	.	.	.	.	.	.	.	.
16b/	16e/	.	8G#X\	Ca-	.	.	8e\	Ca-	8ee\	Ca-	.
16b/JJ	16e/JJ	.	.	.	.	.	.	.	.	.	.
!	!	!	!	!	!	!	!LO:LB:g=original	!	!	!	!
=127	=127	=127	=127	=127	=127	=127	=127	=127	=127	=127	=127
!	!LO:TX:t=P:problem=mixed beam	!	!	!	!	!	!	!	!	!	!
16cc#\LL	16ee\LL	.	8A\	-tho-	.	4.ryy	8a\	-tho-	8ee\	-tho-	.
16cc#\	16e/	.	.	.	.	.	.	.	.	.	.
16b\	16e/	.	8G#X\	-li-	.	.	8b\	-li-	8ee\	-li-	.
16b\	16e/	.	.	.	.	.	.	.	.	.	.
16cc#\	16e/	.	8A\	-ca(m)	.	.	8a\	-ca(m)	8ee\	-ca(m)	.
16cc#\JJ	16e/JJ	.	.	.	.	.	.	.	.	.	.
=128	=128	=128	=128	=128	=128	=128	=128	=128	=128	=128	=128
!	!LO:TX:t=P:problem=mixed beam	!	!	!	!	!	!	!	!	!	!
16a#X\LL	16f#/LL	.	8F#\	et	.	4.ryy	8a#X\	et	8a#X\	et	.
16a#\	16ff#\	.	.	.	.	.	.	.	.	.	.
16b\	16ff#\	.	8G#X\	A-	.	.	8g#X\	a-	8b\	A-	.
16b\	16ff#\	.	.	.	.	.	.	.	.	.	.
16cc#\	16ff#\	.	8A#X\	-po-	.	.	8f#\	-po-	8cc#\	-po-	.
16cc#\JJ	16ff#\JJ	.	.	.	.	.	.	.	.	.	.
!LO:LB:g=original	!	!	!	!	!	!	!	!	!	!	!
=129	=129	=129	=129	=129	=129	=129	=129	=129	=129	=129	=129
!	!LO:TX:t=P:problem=mixed beam	!	!	!	!	!	!	!	!	!	!
16dd\LL	16f#/LL	.	(8B\L	-sto-	.	4.ryy	8b\L	-sto-	(8dd\L	-sto-	.
16dd\	16ff#\	.	.	.	.	.	.	.	.	.	.
16cc#\	16ff#\	.	8A#X\J)	.	.	.	8cc#\J	.	8cc#\J)	.	.
16cc#\	16ff#\	.	.	.	.	.	.	.	.	.	.
16dd\	16ff#\	.	8B\	-li-	.	.	8b\	-li-	8dd\	-li-	.
16dd\JJ	16ff#\JJ	.	.	.	.	.	.	.	.	.	.
!	!LO:LB:g=original	!	!	!	!	!	!	!	!	!	!
=130	=130	=130	=130	=130	=130	=130	=130	=130	=130	=130	=130
!LO:SIC:v:s=16a#\LL	!LO:TX:t=P:problem=mixed beam	!	!	!	!	!	!	!	!	!	!
16a\LL	16ff#\LL	.	(8F#\L	-cam	.	4.ryy	8a#X\L	-cam	8a#X\L	-ca(m)	.
!LO:SIC:v:s=16a#\	!	!	!	!	!	!	!	!	!	!	!
16a\	16f#/	.	.	.	.	.	.	.	.	.	.
16b\	16f#/	.	8G#X\J)	.	.	.	8g#X\J	.	8b\J	.	.
16b\	16f#/	.	.	.	.	.	.	.	.	.	.
16cc#\	16f#/	.	8A#X\	Ec-	.	.	8f#\	Ec-	8cc#\	Ec-	.
16cc#\JJ	16f#/JJ	.	.	.	.	.	.	.	.	.	.
!	!	!	!	!	!	!	!	!	!LO:LB:g=original	!	!
=131	=131	=131	=131	=131	=131	=131	=131	=131	=131	=131	=131
!	!LO:TX:t=P:problem=mixed beam	!	!	!	!	!	!	!	!	!	!
16dd\LL	16ff#\LL	.	8B\	-cle-	.	4.ryy	8b\	-cle-	8dd\	-cle-	.
16dd\	16f#/	.	.	.	.	.	.	.	.	.	.
16cc#\	16f#/	.	8A#X\	-si-	.	.	8cc#\	-si-	8cc#\	-si-	.
16cc#\	16f#/	.	.	.	.	.	.	.	.	.	.
16dd\	16f#/	.	8B\	-a(m)	.	.	8b\	-am	8dd\	-a(m)	.
16dd\JJ	16f#/JJ	.	.	.	.	.	.	.	.	.	.
=132	=132	=132	=132	=132	=132	=132	=132	=132	=132	=132	=132
8cc#\L	8ee\L	.	4.An\	Con-	.	4.ryy	8r	.	8ee\L	Con-	.
8b\	8dd\	.	.	.	.	.	8r	.	8dd\	.	.
8cc#\J	8ee\J	.	.	.	.	.	8an\	Con-	8ee\J	.	.
!	!	!	!LO:LB:g=original	!	!	!	!	!	!	!	!
=133	=133	=133	=133	=133	=133	=133	=133	=133	=133	=133	=133
8dd\L	8ff#\L	.	8.A\	-fi-	.	4.ryy	8a\	-fi-	8ff#\	-fi-	.
8cc#\	8ee\	.	.	.	.	.	8a\	-te-	8ee\	-te-	.
.	.	.	16A\	-te-	.	.	.	.	.	.	.
8dd\J	8ff#\J	.	8A\	-or	.	.	8a\	-or	8ff#\	-or	.
!	!	!	!	!	!	!	!LO:LB:g=original	!	!	!	!
=134	=134	=134	=134	=134	=134	=134	=134	=134	=134	=134	=134
16ee\LL	16gg\LL	.	8A\	u-	.	4.ryy	8a\	u-	8gg\	u-	.
16ee\	16a\	.	.	.	.	.	.	.	.	.	.
16ee\	16gg\	.	8C#/	-nu(m)	.	.	8a\	-nu(m)	8gg\	-nu(m)	.
16ee\	16a\	.	.	.	.	.	.	.	.	.	.
16dd\	16gg\	.	8D/	Bap-	.	.	8a\	bap-	8ff#\	Bap-	.
16dd\JJ	16a\JJ	.	.	.	.	.	.	.	.	.	.
=135	=135	=135	=135	=135	=135	=135	=135	=135	=135	=135	=135
16cc#\LL	16ff#\LL	.	16D\LL	-tis-	.	4.ryy	4.a\	-tiſ-	4.ff#\	-tis-	.
16cc#\	16ff#\	.	16C#\	.	.	.	.	.	.	.	.
16cc#\	16ff#\	.	16D\	.	.	.	.	.	.	.	.
16cc#\	16ff#\	.	16E\	.	.	.	.	.	.	.	.
16cc#\	16ff#\	.	16F#\	.	.	.	.	.	.	.	.
16cc#\JJ	16ff#\JJ	.	16G\JJ	.	.	.	.	.	.	.	.
=136	=136	=136	=136	=136	=136	=136	=136	=136	=136	=136	=136
16cc#\LL	16ee\LL	.	4A\	-ma	.	4.ryy	4a\	-ma	4ee\	-ma	.
16cc#\	16a\	.	.	.	.	.	.	.	.	.	.
16cc#\	16cc#\	.	.	.	.	.	.	.	.	.	.
16cc#\	16ee\	.	.	.	.	.	.	.	.	.	.
16cc#\	16cc#\	.	8r	.	.	.	8r	.	8r	.	.
16cc#\JJ	16a\JJ	.	.	.	.	.	.	.	.	.	.
=137	=137	=137	=137	=137	=137	=137	=137	=137	=137	=137	=137
16dd\LL	16ff#\LL	.	4d\	in	.	4.ryy	4f#\	in	4dd\	in	.
16dd\	16ff#\	.	.	.	.	.	.	.	.	.	.
16dd\	16ff#\	.	.	.	.	.	.	.	.	.	.
16dd\	16ff#\	.	.	.	.	.	.	.	.	.	.
16dd\	16ff#\	.	8c#\	re-	.	.	8f#\	re-	8cc#\	re-	.
16dd\JJ	16ff#\JJ	.	.	.	.	.	.	.	.	.	.
=138	=138	=138	=138	=138	=138	=138	=138	=138	=138	=138	=138
16dd\LL	16ff#\LL	.	4B\	-miſ-	.	4.ryy	4f#\	-miſ-	4dd\	-miſ-	.
16dd\	16ff#\	.	.	.	.	.	.	.	.	.	.
16dd\	16ff#\	.	.	.	.	.	.	.	.	.	.
16dd\	16ff#\	.	.	.	.	.	.	.	.	.	.
16dd\	16ff#\	.	8A\	-si-	.	.	8f#\	-si-	8dd\	-si-	.
16dd\JJ	16ff#\JJ	.	.	.	.	.	.	.	.	.	.
!LO:LB:g=original	!	!	!	!	!	!	!	!	!	!	!
=139	=139	=139	=139	=139	=139	=139	=139	=139	=139	=139	=139
16dd\LL	16ff#\LL	.	4G\	-o-	.	4.ryy	4f#\	-o-	4dd\	-o-	.
16dd\	16ff#\	.	.	.	.	.	.	.	.	.	.
16dd\	16ff#\	.	.	.	.	.	.	.	.	.	.
16dd\	16ff#\	.	.	.	.	.	.	.	.	.	.
16dd\	16ff#\	.	8F#\	-ne(m)	.	.	8f#\	-ne(m)	8dd\	-ne(m)	.
16dd\JJ	16ff#\JJ	.	.	.	.	.	.	.	.	.	.
=140	=140	=140	=140	=140	=140	=140	=140	=140	=140	=140	=140
16cc#\LL	16gg\LL	.	4E\	pec-	.	4.ryy	4g\	pec-	4cc#\	pec-	.
16cc#\	16gg\	.	.	.	.	.	.	.	.	.	.
16gg\	16cc#\	.	.	.	.	.	.	.	.	.	.
16gg\	16cc#\	.	.	.	.	.	.	.	.	.	.
16ff#\	16dd\	.	8D\	-ca-	.	.	8f#\	-ca-	8dd\	-ca-	.
16ff#\JJ	16dd\JJ	.	.	.	.	.	.	.	.	.	.
!	!LO:LB:g=original	!	!	!	!	!	!	!	!	!	!
=141	=141	=141	=141	=141	=141	=141	=141	=141	=141	=141	=141
16ee\LL	16ee\LL	.	4.A\	-to-	.	4.ryy	4.e\	-to-	4.cc#\	-to-	.
16ee\	16cc#\	.	.	.	.	.	.	.	.	.	.
16cc#\	16a\	.	.	.	.	.	.	.	.	.	.
16cc#\	16cc#\	.	.	.	.	.	.	.	.	.	.
16a\	16ee\	.	.	.	.	.	.	.	.	.	.
16g\JJ	16cc#\JJ	.	.	.	.	.	.	.	.	.	.
!	!	!	!	!	!	!	!	!	!LO:LB:g=original	!	!
=142	=142	=142	=142	=142	=142	=142	=142	=142	=142	=142	=142
!	!LO:TX:t=P:problem=mixed beam	!	!	!	!	!	!	!	!	!	!
16f#/LL	16dd\LL	.	4D\	-ru(m)	.	4.ryy	4f#\	-ru(m)	4dd\	-ru(m)	.
16d/	16d/	.	.	.	.	.	.	.	.	.	.
16d/	16d/	.	.	.	.	.	.	.	.	.	.
16d/	16d/	.	.	.	.	.	.	.	.	.	.
16d/	16d/	.	8r	.	.	.	8r	.	8r	.	.
16d/JJ	16d/JJ	.	.	.	.	.	.	.	.	.	.
!	!	!	!LO:LB:g=original	!	!	!	!	!	!	!	!
=143	=143	=143	=143	=143	=143	=143	=143	=143	=143	=143	=143
8b\L	8dd\L	.	4G\	et	.	4.ryy	4g\	et	4dd\	et	.
8dd\	8b\	.	.	.	.	.	.	.	.	.	.
8ccn\J	8ee\J	.	8G\	ex-	.	.	8g\	ex-	8ee\	ex-	.
=144	=144	=144	=144	=144	=144	=144	=144	=144	=144	=144	=144
8b\L	8dd\L	.	4G\	-pec-	.	4.ryy	4g\	-pec-	8dd\L	-pec-	.
8a\	8ccn\	.	.	.	.	.	.	.	8ccn\J	.	.
8g\J	8b\J	.	8G\	-to	.	.	8g\	-to	8b\	-to	.
!	!	!	!	!	!	!	!LO:PB:g=original	!	!	!	!
=145	=145	=145	=145	=145	=145	=145	=145	=145	=145	=145	=145
8a\L	8ccn\L	.	4D/	re-	.	4.ryy	4f#\	re-	4ccn\	re-	.
8ccn\	8a\	.	.	.	.	.	.	.	.	.	.
8b\J	8dd\J	.	8D/	-ſur-	.	.	8d\	-sur-	8dd\	-ſur-	.
=146	=146	=146	=146	=146	=146	=146	=146	=146	=146	=146	=146
8a/L	8ccn\L	.	4D/	-re-	.	4.ryy	4d\	-re-	8ccn\L	-rec-	.
8g/	8b\	.	.	.	.	.	.	.	8b\J	.	.
8f#/J	8a\J	.	8D/	-cti-	.	.	8d\	-cti-	8a\	-ti-	.
=147	=147	=147	=147	=147	=147	=147	=147	=147	=147	=147	=147
16g/LL	16b\LL	.	4G\	-o-	.	4.ryy	4d\	-o-	4b\	-o-	.
16g/	16b\	.	.	.	.	.	.	.	.	.	.
16g/	16b\	.	.	.	.	.	.	.	.	.	.
16g/	16b\	.	.	.	.	.	.	.	.	.	.
16g/	16b\	.	8G\	-ne(m)	.	.	8g\	-nem	8b\	-ne(m)	.
16g/JJ	16b\JJ	.	.	.	.	.	.	.	.	.	.
=148	=148	=148	=148	=148	=148	=148	=148	=148	=148	=148	=148
16b-X/LL	16gg\LL	.	4E\	mor-	.	4.ryy	4g\	mor-	4b-X\	mor-	.
16b-/	16gg\	.	.	.	.	.	.	.	.	.	.
16b-/	16gg\	.	.	.	.	.	.	.	.	.	.
16b-/	16gg\	.	.	.	.	.	.	.	.	.	.
16b-/	16gg\	.	8E\	-tu-	.	.	8g\	-tu-	8b-\	-tu-	.
16b-/JJ	16gg\JJ	.	.	.	.	.	.	.	.	.	.
!LO:LB:g=original	!	!	!	!	!	!	!	!	!	!	!
=149	=149	=149	=149	=149	=149	=149	=149	=149	=149	=149	=149
!	!	!	!	!	!	!	!	!	!LO:SIC:v:s=4.b-\	!	!
16b-X\LL	16ee\LL	.	4.C#/	-o-	.	4.ryy	4.e\	-o-	4.b\	-o-	.
16b-\	16ee\	.	.	.	.	.	.	.	.	.	.
16b-\	16ee\	.	.	.	.	.	.	.	.	.	.
16b-\	16ee\	.	.	.	.	.	.	.	.	.	.
16b-\	16ee\	.	.	.	.	.	.	.	.	.	.
16b-\JJ	16ee\JJ	.	.	.	.	.	.	.	.	.	.
=150	=150	=150	=150	=150	=150	=150	=150	=150	=150	=150	=150
!	!LO:TX:t=P:problem=mixed beam	!	!	!	!	!	!	!	!	!	!
16a/LL	16ff#\LL	.	4D/	-ru(m)	.	4.ryy	4f#\	-ru(m)	4a\	-ru(m)	.
16f#/	16d/	.	.	.	.	.	.	.	.	.	.
16f#/	16f#/	.	.	.	.	.	.	.	.	.	.
16f#/	16a/	.	.	.	.	.	.	.	.	.	.
16f#/	16dd/	.	8D/	et	.	.	8a\	et	8dd\	et	.
16f#/JJ	16dd/JJ	.	.	.	.	.	.	.	.	.	.
=151	=151	=151	=151	=151	=151	=151	=151	=151	=151	=151	=151
!	!	!LO:DY:a:rj:t=f.	!	!	!	!	!	!	!	!	!
16g/LL	16dd\LL	f	8E\	vi-	.	4.ryy	8g\	vi-	8dd\	vi-	.
16g/	16dd\	.	.	.	.	.	.	.	.	.	.
16g/	16cc#\	.	8E\	-ta(m)	.	.	8e\	-ta(m)	8cc#X\	-ta(m)	.
16g/	16cc#\	.	.	.	.	.	.	.	.	.	.
16g/	16ee\	.	8E\	ven-	.	.	8g\	ven-	8ee\	ven-	.
16g/JJ	16ee\JJ	.	.	.	.	.	.	.	.	.	.
!	!LO:LB:g=original	!	!	!	!	!	!	!	!LO:LB:g=original	!	!
=152	=152	=152	=152	=152	=152	=152	=152	=152	=152	=152	=152
16a/LL	16ee\LL	.	8F#\	-tu-	.	4.ryy	8f#\	-tu-	8ee\	-tu-	.
16a/	16ee\	.	.	.	.	.	.	.	.	.	.
16a/	16dd\	.	8F#\	-ri	.	.	8a\	-ri	8dd\	-ri	.
16a/	16dd\	.	.	.	.	.	.	.	.	.	.
16a/	16ff#\	.	8F#\	ven-	.	.	8a\	ven-	8ff#\	ven-	.
16a/JJ	16ff#\JJ	.	.	.	.	.	.	.	.	.	.
!	!	!	!LO:LB:g=original	!	!	!	!	!	!	!	!
=153	=153	=153	=153	=153	=153	=153	=153	=153	=153	=153	=153
16b\LL	16ff#\LL	.	4G\	-tu-	.	4.ryy	4g\	-tu-	(8ff#\L	-tu-	.
16b\	16ff#\	.	.	.	.	.	.	.	.	.	.
16b\	16ee\	.	.	.	.	.	.	.	8ee\J)	.	.
16b\	16ee\	.	.	.	.	.	.	.	.	.	.
16b\	16dd\	.	8G\	-ri	.	.	8dd\	-ri	8dd\	-ri	.
16b\JJ	16dd\JJ	.	.	.	.	.	.	.	.	.	.
!	!	!	!	!	!	!	!LO:LB:g=original	!	!	!	!
=154	=154	=154	=154	=154	=154	=154	=154	=154	=154	=154	=154
16a\LL	16cc#\LL	.	4.A\	ſae-	.	4.ryy	4.a\	ſae-	4.cc#\	ſae-	.
16a\	16cc#\	.	.	.	.	.	.	.	.	.	.
16a\	16a\	.	.	.	.	.	.	.	.	.	.
16a\	16a\	.	.	.	.	.	.	.	.	.	.
16a\	16cc#\	.	.	.	.	.	.	.	.	.	.
16a\JJ	16cc#\JJ	.	.	.	.	.	.	.	.	.	.
=155	=155	=155	=155	=155	=155	=155	=155	=155	=155	=155	=155
16b\LL	16dd\LL	.	8.A\	.	.	4.ryy	8.a\	.	8.dd\	.	.
16b\	16dd\	.	.	.	.	.	.	.	.	.	.
16a\	16a\	.	.	.	.	.	.	.	.	.	.
16a\	16a\	.	16A\	-cu-	.	.	16a\	-cu-	16dd\	-cu-	.
16b\	16dd\	.	8A\	-li	.	.	8a\	-li	8dd\	-li	.
16b\JJ	16dd\JJ	.	.	.	.	.	.	.	.	.	.
=156	=156	=156	=156	=156	=156	=156	=156	=156	=156	=156	=156
16cc#\LL	16ee\LL	.	4A\	A-	.	4.ryy	4a\	A-	4ee\	A-	.
16cc#\	16ee\	.	.	.	.	.	.	.	.	.	.
16a\	16a\	.	.	.	.	.	.	.	.	.	.
16a\	16a\	.	.	.	.	.	.	.	.	.	.
16cc#\	16ee\	.	8A\	-men	.	.	8a\	-men	8ee\	-men	.
16cc#\JJ	16ee\JJ	.	.	.	.	.	.	.	.	.	.
=157	=157	=157	=157	=157	=157	=157	=157	=157	=157	=157	=157
16dd\LL	16ff#\LL	.	4.A\	A-	.	4.ryy	4.a\	A-	4.ff#\	A-	.
16dd\	16ff#\	.	.	.	.	.	.	.	.	.	.
16a\	16a\	.	.	.	.	.	.	.	.	.	.
16a\	16a\	.	.	.	.	.	.	.	.	.	.
16dd\	16ff#\	.	.	.	.	.	.	.	.	.	.
16dd\JJ	16ff#\JJ	.	.	.	.	.	.	.	.	.	.
=158	=158	=158	=158	=158	=158	=158	=158	=158	=158	=158	=158
16ee\LL	16gg\LL	.	4C#/	-men	.	4.ryy	4a\	-men	4gg\	-men	.
16ee\	16gg\	.	.	.	.	.	.	.	.	.	.
16a\	16a\	.	.	.	.	.	.	.	.	.	.
16a\	16a\	.	.	.	.	.	.	.	.	.	.
16ee\	16gg\	.	8r	.	.	.	8r	.	8r	.	.
16ee\JJ	16gg\JJ	.	.	.	.	.	.	.	.	.	.
!LO:LB:g=original	!	!	!	!	!	!	!	!	!	!	!
=159	=159	=159	=159	=159	=159	=159	=159	=159	=159	=159	=159
*	*	*	*	*ij	*	*	*	*ij	*	*ij	*
16dd\LL	16ff#\LL	.	4D\	A-	.	4.ryy	4a\	A-	4ff#\	A-	.
16dd\	16ff#\	.	.	.	.	.	.	.	.	.	.
16dd\	16ff#\	.	.	.	.	.	.	.	.	.	.
16dd\	16ff#\	.	.	.	.	.	.	.	.	.	.
16b\	16ee\	.	8G\	-men	.	.	8b\	-men	16ee\LL	-men	.
*	*	*	*	*Xij	*	*	*	*Xij	*	*Xij	*
16b\JJ	16dd\JJ	.	.	.	.	.	.	.	16dd\JJ	.	.
=160	=160	=160	=160	=160	=160	=160	=160	=160	=160	=160	=160
16a/LL	16cc#\LL	.	4.A\	A-	.	4.ryy	4.a\	A-	4.cc#\	A-	.
16a/	16cc#\	.	.	.	.	.	.	.	.	.	.
16a/	16cc#\	.	.	.	.	.	.	.	.	.	.
16a/	16cc#\	.	.	.	.	.	.	.	.	.	.
16a/	16cc#\	.	.	.	.	.	.	.	.	.	.
16a/JJ	16cc#\JJ	.	.	.	.	.	.	.	.	.	.
=161	=161	=161	=161	=161	=161	=161	=161	=161	=161	=161	=161
!	!LO:TX:t=P:problem=mixed beam	!	!	!	!	!	!	!	!	!	!
16f#/LL	16dd\LL	.	4.D/	-men	.	4.ryy	4.a\	-men	4.dd\	-men	.
16dd/	16f#/	.	.	.	.	.	.	.	.	.	.
16dd/	16f#/	.	.	.	.	.	.	.	.	.	.
16dd/	16f#/	.	.	.	.	.	.	.	.	.	.
16dd/	16f#/	.	.	.	.	.	.	.	.	.	.
16dd/JJ	16f#/JJ	.	.	.	.	.	.	.	.	.	.
=162	=162	=162	=162	=162	=162	=162	=162	=162	=162	=162	=162
!LO:TX:t=P:problem=mixed beam	!	!	!	!	!	!	!	!	!	!	!
16cc#\LL	16e/LL	.	4.AA/	A-	.	4.ryy	4.a\	A-	4.ee\	A-	.
16e/	16cc#/	.	.	.	.	.	.	.	.	.	.
16e/	16cc#/	.	.	.	.	.	.	.	.	.	.
16e/	16cc#/	.	.	.	.	.	.	.	.	.	.
16e/	16cc#/	.	.	.	.	.	.	.	.	.	.
16e/JJ	16cc#/JJ	.	.	.	.	.	.	.	.	.	.
!	!LO:LB:g=original	!	!	!	!	!	!	!	!	!	!
=163	=163	=163	=163	=163	=163	=163	=163	=163	=163	=163	=163
16f#/LL	16dd\LL	.	4D\	-men	.	4.ryy	4a\	-men	4ff#\	-men	.
16f#/	16dd\	.	.	.	.	.	.	.	.	.	.
16a/	16a\	.	.	.	.	.	.	.	.	.	.
16a/	16a\	.	.	.	.	.	.	.	.	.	.
16dd/	16f#\	.	8r	.	.	.	8r	.	8r	.	.
16dd/JJ	16f#\JJ	.	.	.	.	.	.	.	.	.	.
=164	=164	=164	=164	=164	=164	=164	=164	=164	=164	=164	=164
4ff# 4a 4d/	4ff# 4a 4d/	.	4.r	.	.	4.ryy	4.r	.	4.r	.	.
8r	8r	.	.	.	.	.	.	.	.	.	.
==	==	==	==	==	==	==	==	==	==	==	==
*-	*-	*-	*-	*-	*-	*-	*-	*-	*-	*-	*-
!!!system-decoration: [(g1)][(g2)]
!!!RDF**kern: | = vertical stroke
!!!ENC: Kamil Watkowski
!!!END: 2020-12-15
!!!ENC: Marta Lawrence
!!!END: 2022-03-25
!!!YEC: Copyright 2022 Narodowy Instytut Fryderyka Chopina (https://polishscores.org)
!!!YEM: License CC-BY-4.0 (https://creativecommons.org/licenses/by/4.0)
